/* XPM */
static char *_45f8450fa7d48add9275e46d5652c08iACMpNT9SbGxldbQ[] = {
/* columns rows colors chars-per-pixel */
"256 257 256 2 ",
"   c None",
".  c #121D55",
"X  c #131E59",
"o  c #1A1E5C",
"O  c #0F1C52",
"+  c #14235C",
"@  c #17245B",
"#  c #0E255B",
"$  c #182964",
"%  c #1B336C",
"&  c #17356A",
"*  c #1D3B74",
"=  c #1C3977",
"-  c #182C6E",
";  c #262769",
":  c #25336B",
">  c #372C7A",
",  c #273877",
"<  c #2F2E76",
"1  c #1F1F5F",
"2  c #41307D",
"3  c #1D447B",
"4  c #26467B",
"5  c #353585",
"6  c #1E3C83",
"7  c #4C348B",
"8  c #473386",
"9  c #51358E",
"0  c #58388C",
"q  c #553591",
"w  c #5A3795",
"e  c #5D3999",
"r  c #593997",
"t  c #47338C",
"y  c #63399C",
"u  c #64389B",
"i  c #573EA6",
"p  c #4C3EA4",
"a  c #6B3BA3",
"s  c #673AA2",
"d  c #743DAA",
"f  c #773EAD",
"g  c #7D3FB1",
"h  c #1C5687",
"j  c #1E4A82",
"k  c #284888",
"l  c #33498E",
"z  c #34478C",
"x  c #22558B",
"c  c #344A93",
"v  c #394C92",
"b  c #364B97",
"n  c #245A93",
"m  c #35539B",
"M  c #3A559C",
"N  c #355A9E",
"B  c #385396",
"V  c #2E4B94",
"C  c #1D6792",
"Z  c #256599",
"A  c #2D6D9C",
"S  c #2858AB",
"D  c #385AA3",
"F  c #3254AF",
"G  c #3666A7",
"H  c #347BB5",
"J  c #3778B5",
"K  c #2D70AC",
"L  c #1C7BA2",
"P  c #4A479B",
"I  c #53459D",
"U  c #55499B",
"Y  c #455998",
"T  c #515090",
"R  c #654B9A",
"E  c #55659C",
"W  c #4D629C",
"Q  c #4947A6",
"!  c #5746A7",
"~  c #4856A8",
"^  c #5353B4",
"/  c #6546AA",
"(  c #7D5DAB",
")  c #7659A7",
"_  c #7A45B5",
"`  c #7A55B7",
"'  c #6D4BB1",
"]  c #5A6CA3",
"[  c #4576BB",
"{  c #4F6CAF",
"}  c #6776AA",
"|  c #6D6CAE",
" . c #3877C4",
".. c #515BC5",
"X. c #7A4DC3",
"o. c #695AC7",
"O. c #7657C8",
"+. c #7355D3",
"@. c #5667CB",
"#. c #4B7DC9",
"$. c #4A78C5",
"%. c #5579C7",
"&. c #546FD0",
"*. c #6768CA",
"=. c #7E6DDA",
"-. c #7B67D3",
";. c #6E7EDD",
":. c #6779D5",
">. c #7676DB",
",. c #7A72DA",
"<. c #727ADC",
"1. c #7374D5",
"2. c #6E6FCC",
"3. c #737CE2",
"4. c #803FB4",
"5. c #815AAE",
"6. c #8341B5",
"7. c #8A46BA",
"8. c #845BB3",
"9. c #8C5BBB",
"0. c #8A57B9",
"q. c #9157BE",
"w. c #9149BF",
"e. c #8279BD",
"r. c #984AC4",
"t. c #945BC2",
"y. c #9D5BCA",
"u. c #9956C5",
"i. c #8C5CD9",
"p. c #8A59D6",
"a. c #935BDA",
"s. c #9859DA",
"d. c #8754C8",
"f. c #A354CC",
"g. c #A25BCD",
"h. c #A955CF",
"j. c #AB5BD3",
"k. c #A85AD2",
"l. c #A451CD",
"z. c #8465DA",
"x. c #8A62DA",
"c. c #816ADA",
"v. c #896AD9",
"b. c #9465D3",
"n. c #A862D4",
"m. c #A665D1",
"M. c #AB6AE3",
"N. c #C879E9",
"B. c #3483BA",
"V. c #2497B7",
"C. c #288CB3",
"Z. c #2194B4",
"A. c #528BB7",
"S. c #7889B6",
"D. c #6E88B4",
"F. c #7EA3BE",
"G. c #3D9AD3",
"H. c #3592C8",
"J. c #3BA6D9",
"K. c #2AB4D5",
"L. c #2CB6D8",
"P. c #36B4DC",
"I. c #2AA8CA",
"U. c #38BAE5",
"Y. c #38AFE2",
"T. c #4B83CC",
"R. c #448BCD",
"E. c #4786CB",
"W. c #5584CB",
"Q. c #4493CD",
"!. c #4A8BD3",
"~. c #588AD6",
"^. c #4393D2",
"/. c #449CDB",
"(. c #4998D8",
"). c #5D93DF",
"_. c #5393D8",
"`. c #5594CA",
"'. c #6688C9",
"]. c #6A82DE",
"[. c #638BDF",
"{. c #6585DB",
"}. c #7391CF",
"|. c #44A4DC",
" X c #42AACF",
".X c #7AAAD6",
"XX c #5C95E0",
"oX c #569DE2",
"OX c #5999E1",
"+X c #5894E7",
"@X c #4F98E2",
"#X c #6589E1",
"$X c #6C8CE5",
"%X c #4BABE4",
"&X c #4AA8E4",
"*X c #52A3E3",
"=X c #58A6EA",
"-X c #45B4E5",
";X c #42BAE7",
":X c #47B5E8",
">X c #4DB8F2",
",X c #60A6EB",
"<X c #2DCAE9",
"1X c #3BC3E9",
"2X c #35C7EA",
"3X c #38CAF3",
"4X c #2BDAF3",
"5X c #31D4F1",
"6X c #1DECFC",
"7X c #1DF2FD",
"8X c #1BF1FA",
"9X c #24ECFC",
"0X c #27E6F9",
"qX c #21F2FC",
"wX c #26F1F7",
"eX c #34EEF9",
"rX c #29C5DC",
"tX c #46CAEF",
"yX c #4DEDF9",
"uX c #6DDBF8",
"iX c #8A95BC",
"pX c #9B99D8",
"aX c #8A96CC",
"sX c #A490DA",
"dX c #99A5C5",
"fX c #88A8D8",
"gX c #97A7D7",
"hX c #91B2D5",
"jX c #A9B8DA",
"kX c #B4BBD6",
"lX c #A5AED1",
"zX c #AEB4EA",
"xX c #A3AFF5",
"cX c #D28DF3",
"vX c #D3A4EF",
"bX c #BAC4D9",
"nX c #A9C7DA",
"mX c #B8C7E3",
"MX c #B4CDE4",
"NX c #8AC4F3",
"BX c #C4CBDD",
"VX c #CAD5E7",
"CX c #D5DBEB",
"ZX c #CACEE7",
"AX c #DAE2ED",
"SX c #DBE5F2",
"DX c #CDE0EE",
"FX c #EBEDF5",
"GX c #E4EAF3",
"HX c #EEF3F9",
"JX c #EDF2F8",
"KX c #F2F5FA",
"LX c #FFFFFF",
"PX c #F5F8FB",
"IX c #E1E5EE",
"UX c #E1DAF2",
/* pixels */
"                                                                                                                                                                                                                                                                                                                                                                                                                                                                                                                                ",
"                                                                                                                                                                                                                                                                                                                                                                                                                                                                                                                                ",
"                                                                                                                                                                                                                                                                                                                                                                                                                                                                                                                                ",
"                                                                                                                                                                                                                                                                                                                                                                                                                                                                                                                                ",
"                                                                                                                                                                                                                                                                                                                                                                                                                                                                                                                                ",
"                                                                                                                                                                                                                                                                                                                                                                                                                                                                                                                                ",
"                                                                                                                                                                                                                                                                                                                                                                                                                                                                                                                                ",
"                                                                                                                                                                                                                                                                                                                                                                                                                                                                                                                                ",
"                                                                                                                                                                                                                                                                                                                                                                                                                                                                                                                                ",
"                                                                                                                                                                                                                                                                                                                                                                                                                                                                                                                                ",
"                                                                                                                                                                                                                                                                                                                                                                                                                                                                                                                                ",
"                                                                                                                                                                                                                                                                                                                                                                                                                                                                                                                                ",
"                                                                                                                                                                                                                                                                                                                                                                                                                                                                                                                                ",
"                                                                                                                                                                                                                                                                                                                                                                                                                                                                                                                                ",
"                                                                                                                      qXqXqXqX                                                                                                                                                                                                                                                                                qXqXwXqX                                                                                                          ",
"                                                                                                              qX7X7X7X7X7X7X7X7X7X7X7X                                                                                                                                                                                                                                                                qX7X7X7X7X7X7X7X7X7X7XwX                                                                                                  ",
"                                                                                                          qX7X7X7X9X0X0X4X4X0X0X6X6X8X7X7X9X                                                                                                                                                                                                                                                    wXqX7X7X7X9X0X4X4X4X0X0X9X7X7X7XqX                                                                                              ",
"                                                                                                        qX7XqX0X<XP.J.J.J.J.J.J.P.<X0X6X7X7X7XqX                                                                                                                                                                                                                                              qX7X7XqX0X2XJ.G.^.Q.Q.^.G.J.<X9X7X7XqX                                                                                            ",
"                                                                                                      7X7X9X<XJ././.^.^.^.^.^.^.G.G.J.P.<X9X7X7X7X                                                                                                                                                                                                                                        qXqXqX9X<XJ.Q.R.E.E.E.E.E.E.E.R.R.J.2X9X7X7X                                                                                          ",
"                                                                                                    7X7X0X2XJ./.^.!.`.`.).).`.!.R.R.^.^.J.U.5X9X7X7XqX                                                                                                                                                                                                                                qX7XqX9X<XP.Q.R.T.T.#.T.W.'.'.W.T.T.T.R.^.P.9X7X7X                                                                                        ",
"                                                                                                  qX7X9XU.J./.^.`.hXMXAXGXSXDXMXfX`.R.R.^.^.J.2X9X7X7X7X                                                                                                                                                                                                                            qX7XqX0XU.Q.R.T.T.#.'.gXmXCXSXSXCXmXfXW.T.E.Q.<X9X7XqX                                                                                      ",
"                                                                                                7X7X9XU.G.^.R.hXJXLXLXLXLXLXLXLXLXLXDXhX`.R.^.^.J.<X9X7X7X                                                                                                                                                                                                                        7X7X9XU.^.E.T.#.W.gXVXLXLXLXLXLXLXLXLXLXJXfXT.E.Q.U.6X7XqX                                                                                    ",
"                                                                                                7X7X<XJ.G.^.fXHXLXLXLXLXLXLXLXLXLXLXLXPXVX.X!.!.^.J.U.0X7X7X                                                                                                                                                                                                                    7X7X0XP.Q.T.T.W.aXCXKXLXLXLXLXLXLXLXLXLXLXLXFXfX$.E.G.<X7X7X                                                                                    ",
"                                                                                              7X7X0XJ.G.G..XGXLXLXLXLXLXLXLXLXLXLXLXLXLXLXFXjXW.!.^.G.P.0X7X7X                                                                                                                                                                                                                7X7X4XJ.R.T.#.%.jXKXLXLXLXLXLXLXLXLXLXLXLXLXLXLXSX}.#.R.J.9X7X                                                                                    ",
"                                                                                              7X9X<X/.^.`.DXLXLXLXLXLXLXLXLXLXLXLXLXLXLXLXLXLXDX}.!.R.G.J.4X7X7X7X                                                                                                                                                                                                        qX7XqX4XG.E.#.$.}.CXLXLXLXLXLXLXLXLXLXLXLXLXLXLXLXLXLXAX$.E.R.<X7X7X                                                                                  ",
"                                                                                              7X0XP./.^.nXPXLXLXLXLXLXLXLXLXLXLXLXLXLXLXLXLXLXLXFX}.E.R.^.J.4X7X7X                                                                                                                                                                                                      qX7XqX5XG.E.#.$.fXGXLXLXLXLXLXLXLXLXLXLXLXLXLXLXLXLXLXLXLX}.#.R.J.9X7X                                                                                  ",
"                                                                                            7X7X<XJ.^.`.JXLXLXLXLXLXLXLXLXLXLXLXLXLXLXLXLXLXLXLXLXKXhXT.R.^.J.<X7X7X                                                                                                                                                                                                  qXqX9X5XQ.T.$.%.jXPXLXLXLXLXLXLXLXLXLXLXLXLXLXLXLXLXLXLXLXLXVX'.T.Q.5X7X7X                                                                                ",
"                                                                                            7X9XU./.Q.hXLXLXLXLXLXLXLXLXLXLXLXLXLXLXLXLXLXLXLXLXLXLXJXjXE.R.^.J.5X7X7X                                                                                                                                                                                                qXqX5XG.T.$.%.jXPXLXLXLXLXLXLXLXLXLXLXLXLXLXLXLXLXLXLXLXLXLXPXfXT.R.P.7X7X                                                                                ",
"                                                                                            7X4XJ.^.!.CXLXLXLXLXLXLXLXLXLXLXLXLXLXLXLXLXLXLXLXLXLXLXLXLXhXE.R.^.J.0X7X7X                                                                                                                                                                                            qXqX4XG.T.#.$.jXKXLXLXLXLXLXLXLXLXLXLXLXLXLXLXLXLXLXLXLXLXLXLXLXmX#.E.G.9X7X                                                                                ",
"                                                                                          qX7X<XG.^.}.JXLXLXLXLXLXLXLXLXLXLXLXLXLXLXLXLXLXLXLXLXLXLXLXLXLXjXT.R.^.P.0X7X7X                                                                                                                                                                                        qXqX4X^.T.#.%.jXLXLXLXLXLXLXLXLXLXLXLXLXLXLXLXLXLXLXLXLXLXLXLXLXLXSX'.E.R.4X7X7X                                                                              ",
"                                                                                          7X7XU.G.R.fXLXLXLXLXLXLXLXLXLXLXLXLXLXLXLXLXLXLXLXLXLXLXLXLXLXLXLXhXT.E.^.P.9X7XqX                                                                                                                                                                                    qX7X0XJ.T.#.%.jXPXLXLXLXLXLXLXLXLXLXLXLXLXLXLXLXLXLXLXLXLXLXLXLXLXLXJXfX#.R.<X7X7X                                                                              ",
"                                                                                          7X7XJ.G.R.MXLXLXLXLXLXLXLXLXLXLXLXLXLXLXLXLXLXLXLXLXLXLXLXLXLXLXLXPXjXT.E.^.P.9X7XqX                                                                                                                                                                                qX7X9XJ.E.%.%.jXLXLXLXLXLXLXLXLXLXLXLXLXLXLXLXLXLXLXLXLXLXLXLXLXLXLXLXLXjX$.E.P.9X7X                                                                              ",
"                                                                                        wX7X9XJ.G.E.HXLXLXLXLXLXLXLXLXLXLXLXLXLXLXLXLXLXLXLXLXLXLXLXLXLXLXLXLXPXjXT.E.^.U.9X7XqX                                                                                                                                                                            wX7X0XP.T.#.%.jXLXLXLXLXLXLXLXLXLXLXLXLXLXLXLXLXLXLXLXLXLXLXLXLXLXLXLXLXLXVX$.E.J.0X7X                                                                              ",
"                                                                                        qX7X0XG.^.`.LXLXLXLXLXLXLXLXLXLXLXLXLXLXLXLXLXLXLXLXLXLXLXLXLXLXLXLXLXLXPX}.T.E.G.5X7X7X                                                                                                                                                                            7X9XU.R.#.%.gXJXLXLXLXLXLXLXLXLXLXLXLXLXLXLXLXLXLXLXLXLXLXLXLXLXLXLXLXLXLXGX$.E.G.4X7XwX                                                                            ",
"                                                                                        qX7X4XG.R..XLXLXLXLXLXLXLXLXLXLXLXLXLXKXVXbXbXVXKXLXLXLXLXLXLXLXLXLXLXLXLXSX}.E.R.G.4X6X7X                                                                                                                                                                        7X7X<XQ.#.$.}.KXLXLXLXLXLXLXLXLXLXLXLXLXJXVXbXkXVXKXLXLXLXLXLXLXLXLXLXLXLXLXPX[ E.Q.5X7XwX                                                                            ",
"                                                                                        qX7X5X^.R.fXLXLXLXLXLXLXLXLXLXLXLXKXkX} W Y Y W } dXCXLXLXLXLXLXLXLXLXLXLXLXmXW.E.R.P.0X7XqX                                                                                                                                                                    qX7X0XG.E.$.%.CXLXLXLXLXLXLXLXLXLXLXLXCXdX} W Y Y W } bXPXLXLXLXLXLXLXLXLXLXLXLX'.#.R.<X7XqX                                                                            ",
"                                                                                        qX9X<X^.R.hXLXLXLXLXLXLXLXLXLXLXPXdXB c c c c c c l E kXPXLXLXLXLXLXLXLXLXLXKXjX$.E.Q.2X9X7X                                                                                                                                                                    7X9X2XE.#.$.kXLXLXLXLXLXLXLXLXLXLXKXkXW z c c c c c l Y lXLXLXLXLXLXLXLXLXLXLXLX}.#.R.2X7X7X                                                                            ",
"                                                                                        qX9X<X^.R.nXLXLXLXLXLXLXLXLXLXLXdXB c c c c c c c c c c } GXLXLXLXLXLXLXLXLXLXPX}.$.E.G.5X7XqX                                                                                                                                                                qXqX5XH.$.$.aXLXLXLXLXLXLXLXLXLXLXCX} b b c c c c c c c c v BXLXLXLXLXLXLXLXLXLXLXhX#.R.U.7X7X                                                                            ",
"                                                                                        7X9X2X^.!.MXLXLXLXLXLXLXLXLXLXGXY b c c c c c c c c c c b ] ZXLXLXLXLXLXLXLXLXLXAX%.#.E.J.9X7XqX                                                                                                                                                            9XqX0XJ.E.$.'.GXLXLXLXLXLXLXLXLXLXBXY b b c c c c c c c c c b } IXLXLXLXLXLXLXLXLXLXjX#.R.U.7X7X                                                                            ",
"                                                                                        6X9XU.^.`.MXLXLXLXLXLXLXLXLXPXD.b G -XP.H.N c c c c c c c b Y lXLXLXLXLXLXLXLXLXLXmX$.#.R.U.qXqX                                                                                                                                                            7X9XP.E.#.%.ZXLXLXLXLXLXLXLXLXLXkXY b b b b b c c c N H.P. XN b dXLXLXLXLXLXLXLXLXLXjX$.R.P.qX7X                                                                            ",
"                                                                                        9X9XU.^.`.VXLXLXLXLXLXLXLXLXAXY m G.3X2X2XP.H m c v v c c b v Y kXPXLXLXLXLXLXLXLXPX}.%.T.^.4XqXqX                                                                                                                                                        qXqX4XQ.T.$.lXKXLXLXLXLXLXLXLXLXlX] b b c c b b c m J P.2X3X1XB.c } FXLXLXLXLXLXLXLXLXmX$.R.P.9X7X                                                                            ",
"                                                                                        9X9XU.Q.`.VXLXLXLXLXLXLXLXLXkXc G P.2X2X2X2X1XH.B b v c c c c c Y bXLXLXLXLXLXLXLXLXCX'.#.E.P.qXqX                                                                                                                                                        qX9XP.T.#.%.FXLXLXLXLXLXLXLXLXBXY c c b c c c c N H.1X2X2X2X3XP.V Y bXLXLXLXLXLXLXLXLXmX$.E.P.9X7X                                                                            ",
"                                                                                        qX9XU.Q.`.VXLXLXLXLXLXLXLXLXiXl B.1X2X2X2X2X1X1X|.N b b c c c c c l BXPXLXLXLXLXLXLXLXjX%.T.R.4X7XqX                                                                                                                                                    qXqX<XR.#.%.jXLXLXLXLXLXLXLXLXBXY c c c c b c c N |.1X1X1X1X2X2X2XN l iXLXLXLXLXLXLXLXLXmX$.E.P.9X7X                                                                            ",
"                                                                                        qX9XU.^.`.MXLXLXLXLXLXLXLXKX} l G.2X2X1X1X1X1X1X1XJ.G b c c c c c c Y bXLXLXLXLXLXLXLXFXfX%.T.J.0X7X                                                                                                                                                  qX7X0XG.T.%.aXKXLXLXLXLXLXLXLXVXY c c c c b b c G |.1X1X1X1X1X1X2X2XH l } LXLXLXLXLXLXLXLXmX$.E.P.9X7X                                                                            ",
"                                                                                        qX9XU.^.!.MXLXLXLXLXLXLXLXAX] V P.2X1X1X1X1X1X1X1XtX|.m b c c c c c l ] CXLXLXLXLXLXLXLXCX%.#.R.<X7X7X                                                                                                                                                7X9X2XE.#.%.VXLXLXLXLXLXLXLXAX} l c c c c c c N |.tX1X1X1X1X1X1X1X1XH.c Y LXLXLXLXLXLXLXLXjX$.R.U.qX7X                                                                            ",
"                                                                                        qX9X2X^.!.MXLXLXLXLXLXLXLXBXY V U.1X1X1X1X1X1X1X1XU.;X^.m c c c c c c z } PXLXLXLXLXLXLXLXfX$.E.G.0X7X6X                                                                                                                                            9X7X4XG.T.$.gXPXLXLXLXLXLXLXJXD.z c c c c c c D /.;XtXtX1X1X1X1X1X1X1XG.m v PXLXLXLXLXLXLXLXlX$.R.U.7X7X                                                                            ",
"                                                                                        wX9X2X^.!.nXLXLXLXLXLXLXLXkXY N 1X1X1X1X1X1X1X1XU.U.;X;XB.c c c c c c c c bXLXLXLXLXLXLXLXCX%.$.R.5X6X7X                                                                                                                                            7X9XU.E.$.[ GXLXLXLXLXLXLXLXdXv c c c c c c c H.;X;X;X;XU.1X1X1X1X1X1XJ.D l FXLXLXLXLXLXLXLXhX#.R.2X7XqX                                                                            ",
"                                                                                        qXqX<X^.E.jXLXLXLXLXLXLXLXlXB G 1X1X1X1XU.U.U.U.U.;X;X;X:XG c c c c c c c W ZXLXLXLXLXLXLXLXgX$.#.G.9X7XqX                                                                                                                                        wXqX4X^.#.$.gXLXLXLXLXLXLXLXVXB c c c c c c c B.-X;X;X;X;X;X;X;XU.1X1X1X-XG c CXLXLXLXLXLXLXLX}.#.R.<X7XqX                                                                            ",
"                                                                                        qXqX5X^.E.hXLXLXLXLXLXLXLXdXB G tXU.;X1XU.U.U.;X;X;X-X-X-X/.D c c c c c c v S.JXLXLXLXLXLXLXSX%.#.R.5XqXqX                                                                                                                                        qXqXU.E.$.%.SXLXLXLXLXLXLXFX} c c c c c c c G |.:X:X;X;X;X;X;X;X;XU.U.1X-XG c VXLXLXLXLXLXLXLX}.#.R.<X7XqX                                                                            ",
"                                                                                        qX7X4X^.R..XLXLXLXLXLXLXLXdXb J ;X;XU.;XU.U.;X;X;X;X-X-X-X-XH.c c c c c c b Y lXLXLXLXLXLXLXLXaX$.E.P.0X7X                                                                                                                                        qX0XG.#.$.aXLXLXLXLXLXLXLXdXv c c c c c c c Q.-X:X:X:X;X;X;X;X;X;X;X;XU.-XG c BXLXLXLXLXLXLXLX%.#.R.4X7XwX                                                                            ",
"                                                                                        qX7X4X^.R.}.LXLXLXLXLXLXLXdXB J ;X;X;X;X;X;X-X-X-X:X:X-X-X-X&XJ c c c c c c b Y FXLXLXLXLXLXLXCX'.#.R.<XqXqX                                                                                                                                    qXqX2XE.$.$.FXLXLXLXLXLXLXCXl v c c c c c c J %X-X-X-X:X:X:X-X-X;X;X;X;X;X-XG c BXLXLXLXLXLXLXPX[ #.G.4X7XqX                                                                            ",
"                                                                                        qX7X0XG.R.W.LXLXLXLXLXLXLXdXB G ;X;X;X;X;X-X-X-X:X:X:X-X-X%X%X|.m c c b c c c c S.PXLXLXLXLXLXLXgX%.T.P.9X7X                                                                                                                                    qX0XG.T.$.aXLXLXLXLXLXLXFXS.b v c c c c c D /.%X-X-X-X-X:X:X:X-X;X;X;X;X;X|.G l CXLXLXLXLXLXLXGX$.T.G.0X7X                                                                              ",
"                                                                                          7X9XG.R.#.HXLXLXLXLXLXLXlXM G ;X;X;X;X-X-X:X:X-X-X-X-X%X%X%X%XE.b b b c c c c v bXLXLXLXLXLXLXCX%.T.Q.5X7XqX                                                                                                                                qXqX2XE.#.'.VXLXLXLXLXLXLXlXv b c c c c c c R.&X%X%X%X-X-X-X:X:X:X:X:X;X;X;X|.D l IXLXLXLXLXLXLXCX$.T.J.0X7X                                                                              ",
"                                                                                          7XqXJ.R.E.CXLXLXLXLXLXLXkXY D :X;X-X-X-X:X-X-X-X-X-X%X%X%X%X%X|.G b c c c c c l E KXLXLXLXLXLXKX}.%.T.P.qX7X                                                                                                                                qX9XJ.T.%.fXPXLXLXLXLXLXAX] c v c c c c c G &X&X%X%X%X%X-X-X-X-X-X:X:X:X:X;X|.D l JXLXLXLXLXLXLXmX$.E.P.9X7X                                                                              ",
"                                                                                          qX7XP.R.E.jXLXLXLXLXLXLXBXW m :X:X:X:X-X-X-X-X%X%X%X%X%X%X&X&X%X_.b c c c c c c z lXLXLXLXLXLXLXbX%.T.H.0X7X                                                                                                                              qXqX4XE.T.%.VXLXLXLXLXLXLXS.l c c c c c c m (.&X&X&X&X%X%X%X%X-X-X-X-X:X:X:X:X^.N B LXLXLXLXLXLXPXhX#.E.2X9XqX                                                                              ",
"                                                                                          qX7XU.G.E..XLXLXLXLXLXLXCX] c %X:X-X-X-X-X%X%X%X%X&X&X&X&X&X%X%X*X[ c c c c c c c W CXLXLXLXLXLXPX'.$.E.U.qXqX                                                                                                                            qX9XU.T.%.aXJXLXLXLXLXLXGXl c c c c c c c [ *X*X&X&X&X&X%X%X%X%X%X-X-X-X-X-X:XR.m W LXLXLXLXLXLXFX}.#.R.5X7XqX                                                                              ",
"                                                                                          qX7X<XG.E.}.PXLXLXLXLXLXGX] c |.-X-X-X%X%X%X%X%X&X&X&X&X&X*X*X*X*X!.D c c c c c c c dXLXLXLXLXLXLXgX$.#.J.9XqX                                                                                                                            7X4XG.T.%.mXLXLXLXLXLXPXdXl c c c c c c N _.*X*X*X*X&X&X&X&X%X%X%X%X%X-X-X-X-XE.b ] LXLXLXLXLXLXSX'.#.R.4X7XqX                                                                              ",
"                                                                                            7X4XG.R.`.GXLXLXLXLXLXPX} c Q.-X-X%X%X%X%X%X%X&X&X&X*X*X*X*X*X*X*X[ c c c c c c c ] AXLXLXLXLXLXZX%.$.R.4X7XqX                                                                                                                        qXqX<XR.#.[ FXLXLXLXLXLXCXW c c c c c c b [ *X*X*X*X*X*X&X&X&X%X&X%X%X%X%X%X-X-XJ b D.LXLXLXLXLXLXVX$.E.H.9X7XqX                                                                              ",
"                                                                                            qX9XJ.R.T.CXLXLXLXLXLXLXS.c E.%X%X%X%X&X&X&X&X&X*X*X*X*X*X*X*X*X*X_.M c c c c c b v iXLXLXLXLXLXPX}.$.E.P.7XqX                                                                                                                        qX9XJ.E.$.aXLXLXLXLXLXLXiXc c c c c c c D _.*X*X*X*X*X*X*X*X&X&X&X&X&X%X%X%X%X%XG c iXLXLXLXLXLXLXjX$.E.J.qX7X                                                                                ",
"                                                                                            qXqXU.Q.T.nXLXLXLXLXLXLXdXc J &X%X%X&X&X&X&X&X*X*X*X*X*X*X*X*X*XoXoX[ c c c c c b b Y PXLXLXLXLXLXjX$.#.H.9XqX                                                                                                                        qX0XG.#.$.VXLXLXLXLXLXAX] c c c c c c c [ oXoXoX*X*X*X*X*X*X*X*X%X&X&X&X&X&X%X&XD B lXLXLXLXLXLXLXfX#.E.U.7XqX                                                                                ",
"                                                                                            qX7X<X^.E.}.LXLXLXLXLXLXkXc G |.&X&X&X&X&X*X*X*X*X*X*X*X*X*XoXoXoXoX_.b c c c c c c b dXLXLXLXLXLXCX%.#.E.5XqXqX                                                                                                                    qXqX5XE.#.'.JXLXLXLXLXLXiXv c c c c c c D _.oXoXoXoXoX*X*X*X*X*X*X*X%X%X&X&X&X%X*Xc Y BXLXLXLXLXLXJX}.#.R.5X7XqX                                                                                ",
"                                                                                              7X4XG.E.W.KXLXLXLXLXLXVXv N (.&X&X&X&X*X*X*X*X*X*X*XoXoXoXoXoXoXoXOX{ c c c c c c c ] FXLXLXLXLXJXaX$.E.U.9XqX                                                                                                                    qXqXP.T.$.gXLXLXLXLXLXKXW c c c c c c c [ ).OXoXoXoXoXoX*X*X*X*X*X*X*X*X&X&X&X&X!.c ] AXLXLXLXLXLXVX'.T.^.0X7XqX                                                                                ",
"                                                                                              7X0XJ.!.T.CXLXLXLXLXLXIXY c R.&X*X*X*X*X*X*X*X*XoXoXoXoXoXoXoXOXOXOXT.m c c c c c c v bXLXLXLXLXLXmX$.#.G.0XqX                                                                                                                    qX9XG.#.$.CXLXLXLXLXLXkXc c c c c c c c ~.OXOXOXOXOXoXoXoXoXoX*X*X*X*X*X*X*X&X&X[ c } PXLXLXLXLXLXjX#.E.J.9X7X                                                                                  ",
"                                                                                              qX9XU.R.E.jXLXLXLXLXLXKX] c [ *X*X*X*X*X*X*X*XoXoXoXoXoXOXOXOXOXOXOXXX{ c c c c c c c E PXLXLXLXLXFX[ #.R.5XqXqX                                                                                                                qXqX4XR.#.'.LXLXLXLXLXKX] c c c c c c c [ ).).OXOXOXOXOXoXoXoXoXoXoX*X*X*X*X*X*X*XG c iXLXLXLXLXLXLXaX#.E.U.qXqX                                                                                  ",
"                                                                                              qX7X5X^.E.}.GXLXLXLXLXLXiXc G oX*X*X*X*XoXoXoXoXoXoXOXOXOXOXOXOXOXXXXX%.b c c c c c c z BXLXLXLXLXLXaX%.T.U.qXqX                                                                                                                qX9XU.E.%.gXLXLXLXLXLXbXv c c c c c c M ~.XXOX).OX).).OXOXOXOXoXoXoXoXoX*X*X*X*X(.N l kXLXLXLXLXLXPXW.T.R.4XqXqX                                                                                  ",
"                                                                                              qX7X0XG.E.W.CXLXLXLXLXLXkXc D _.*XoXoXoXoXoXoXoXOXOXOXOXOXOXXXXXXXXXXX).~ c c c c c c c iXPXLXLXLXLXmX%.T.J.0XqX                                                                                                                7X0XJ.T.W.BXLXLXLXLXLXD.c c c c c c c ~ ).XXXX).).).).OXOXOXOXOXoXOXoXoXoXoXoX*X!.c B VXLXLXLXLXLXSX%.T.^.9XqX                                                                                    ",
"                                                                                                7XqXJ.!.#.jXLXLXLXLXLXKXv b E.oXoXoXoXoXoXOXOXOXOXOXOXOXOX).).XXXX).#X%.c c c c c c c Y CXLXLXLXLXGX'.T.Q.5X7XwX                                                                                                            qX7X5XR.#.}.FXLXLXLXLXGXl c c c c c c c W.).).XXXX).XX).).XXOXOXOXOXoXoXoXoXoXoXoX[ c } GXLXLXLXLXLXjX#.E.P.qXqX                                                                                    ",
"                                                                                                qX7X2X^.E..XPXLXLXLXLXLX] c [ oXoXoXoXoXOXOXOXOXXXOXOX).).).).).).).[.[.b l c c c c c l lXLXLXLXLXPX}.%.R.U.7XqX                                                                                                            qXqX2XE.%.gXLXLXLXLXLXlXc c c c c c c D [.[.[.XX).XX).).).XX).OXOXOXOXOXOXoXoXoXoXD l iXPXLXLXLXLXFX}.E.R.2XqXqX                                                                                    ",
"                                                                                                qX7X4X/.E.W.VXLXLXLXLXLXiXl D oXoXoXOXOXOXOXOXOXOXXXXXXXXX).).[.[.[.[.#X{ c c c c c c c } PXLXLXLXLXlX%.T.J.qX7X                                                                                                            7X9XJ.#.%.mXLXLXLXLXGX} c c c c c c b $.#X#X#X[.).).).).).).).).XXOXOXOXOXOXoXoX_.c z bXLXLXLXLXLXVX%.E.G.0X7X                                                                                      ",
"                                                                                                  7X9XJ.E.T.hXLXLXLXLXLXkXY b _.oXOXOXOXOXOXOXXX).).XXXX).).[.[.[.[.[.[.%.b c c c c c c Y IXLXLXLXLXCX%.T.H.9X7X                                                                                                            7X0X/.#.%.CXLXLXLXLXBXB c c c c c c D ~.#X#X#X[.[.[.).[.).).).).).XXOXOXOXOXOXOXT.l v FXLXLXLXLXLXjX$.E.P.9XqX                                                                                      ",
"                                                                                                  qXqX2X!.T.}.LXLXLXLXLXGX] c $.OXOXOXOXOXXXXXXXXXXX).).[.[.[.[.#X#X[.[.{.D c c c c c c v bXLXLXLXLXPX%.#.R.4X7XqX                                                                                                        wX7X5X^.#.'.FXLXLXLXLXdXc c c c c c c { {.[.[.[.[.#X[.[.[.).).).).).).XXXXXXOXOX).[ z ] LXLXLXLXLXHX}.#.R.<XqXqX                                                                                      ",
"                                                                                                  qX7X0X^.E.#.VXLXLXLXLXLXiXb G ).XXXXXXXX).).).).[.[.[.[.[.#X#X[.[.[.{.#X%.c c c c c c c } LXLXLXLXLX}.$.E.U.qXqX                                                                                                        qX7XU.E.$.}.PXLXLXLXFX} c c c c c c b %.{.{.{.[.[.[.[.#X[.[.[.).).).).).).).XXOX~.D c jXLXLXLXLXLXmXW.T.G.4X7XwX                                                                                      ",
"                                                                                                    7XqXJ.R.#.fXLXLXLXLXLXbXv M ~.XXXXXXXX).XX).[.).[.[.[.#X[.[.[.[.{.{.#X].b c c c c c c v FXLXLXLXLXgX$.E.J.9XqX                                                                                                        7XqXJ.T.$.jXLXLXLXLXbXY c c c v c c ~ :.].{.{.{.{.[.[.[.[.[.#X[.[.).).XXXX).XXXX%.c Y CXLXLXLXLXLXfX$.E.U.9XqX                                                                                        ",
"                                                                                                    qX7X<X^.E.W.GXLXLXLXLXIX] b $.).).XX).XX[.[.[.[.#X#X#X[.[.[.{.{.].].].].~ c c c c c c c kXLXLXLXLXmX%.E.G.0X7X                                                                                                        7X9X^.#.$.SXLXLXLXLXiXc c c c c c c @.].].#X].].{.{.{.[.[.[.#X#X#X).).).XX).).).{ b } PXLXLXLXLXJX%.#.R.4XqXqX                                                                                        ",
"                                                                                                    qX7X0XJ.R.#.jXLXLXLXLXPXdXb D ).).).).#X[.[.[.[.#X#X[.[.{.{.{.].].].].].@.b c c c c c c S.KXLXLXLXSX'.#.Q.4X7X                                                                                                      qX7X4XR.#.%.PXLXLXLXLXE c c c c c c c :.].].#X#X].].].].{.[.[.[.#X#X#X[.[.).).).).D b lXLXLXLXLXLXjX$.E.G.9XqX                                                                                          ",
"                                                                                                      7XqXU.R.#.W.PXLXLXLXLXVXb c W.[.[.[.#X#X[.#X[.[.[.[.{.].].].].].].].].:.~ c c c c c c Y CXLXLXLXPX}.#.R.<X7XqX                                                                                                    qX7X2XE.#.}.LXLXLXLXCXl c c c c c c D ].].].#X].].].].].{.{.{.[.[.[.[.[.[.[.[.).W.b Y PXLXLXLXLXFX'.#.R.U.qXqX                                                                                          ",
"                                                                                                      qX7X4XG.E.#.mXLXLXLXLXLXE c { ).[.[.#X[.[.[.[.{.{.{.].].].].].].].].;.;.{ c c c c c c l lXLXLXLXLXgX$.E.J.7X7X                                                                                                    qXqXP.T.%.gXLXLXLXLXiXc c c c c c c { ;.;.].].].].#X].#X].].].{.{.[.[.#X#X#X#X[.~ b S.LXLXLXLXLXmX%.E./.4XqXqX                                                                                          ",
"                                                                                                        7X9XU.R.W.fXJXLXLXLXLXlXc M W.#X[.[.[.{.[.{.{.].].].].].].].].].;.;.;.@.c c c c c c l S.LXLXLXLXmX$.E.G.qX7X                                                                                                    qX9XG.T.%.mXLXLXLXPX} c c c c c c b @.;.;.;.;.].].].].].].].].].{.{.[.#X[.#X#X~.b Y kXLXLXLXLXPX}.#.E.P.9XqX                                                                                            ",
"                                                                                                        7X7X4X^.!.W.VXLXLXLXLXAXY c $.#X[.{.{.{.{.].].].].].].].].].;.;.;.;.;.:.~ c c c c c c ] GXLXLXLXVX$.E.H.9X7X                                                                                                    7X0X^.#.'.CXLXLXLXIXY c c c c c c ~ :.<.<.;.<.;.;.;.].].].].].].].].].{.[.[.[.$.c } FXLXLXLXLXCX%.#.R.5XqXqX                                                                                            ",
"                                                                                                          7XqXJ.!.T.fXLXLXLXLXPXS.c ~ {.{.{.#X{.].].].].].].].].;.;.;.;.<.<.<.<.^ c c c c c c Y bXLXLXLXSX'.T.R.4X7X                                                                                                  qX7X4X^.#.}.FXLXLXLXbXc c c c c c c ^ <.<.<.<.<.<.;.;.;.;.].].].].].].].].{.[.~.D c dXLXLXLXLXKXfX%.E.J.0XqX                                                                                              ",
"                                                                                                          qX7X5X^.T.'.GXLXLXLXLXVXz b %.{.#X#X].].].].].].].;.;.;.;.<.<.<.<.<.<.*.c c c c c c l dXLXLXLXFX}.T.E.<X7XwX                                                                                                qX7X2XE.%.aXLXLXLXLXiXc c c c c c c @.>.<.<.<.<.<.<.<.;.;.].].].].].].].].].{.%.c B CXLXLXLXLXVX%.T.E.5XqXqX                                                                                              ",
"                                                                                                            7X9XJ.E.T.fXLXLXLXLXLX} c ~ #X#X#X].].].].].;.;.;.<.<.<.<.<.<.<.>.>.1.c c c c c c z } LXLXLXPXjX#.E.U.7XqX                                                                                                qX7XU.T.%.gXLXLXLXPXY c c c c c c ~ 2.>.>.<.<.<.<.<.<.<.;.;.;.].].].].].].].].~ c } PXLXLXLXPXaX%.T.G.9XqXwX                                                                                              ",
"                                                                                                            qX7X<X^.E.%.SXLXLXLXLXlXY b :.].].].].].].;.;.;.<.<.<.<.<.<.>.>.>.>.>.~ c c c c c l Y PXLXLXLXmX%.T.P.qXqX                                                                                                qXqXJ.T.%.nXLXLXLXIXl c c c c c c ^ 1.>.>.>.>.<.<.<.<.<.<.;.;.;.;.].].].].].%.b c bXLXLXLXLXBX'.%.R.<XqXqX                                                                                                ",
"                                                                                                              7X9XG.!.#.jXPXLXLXLXFX} c { ].].].;.;.;.;.<.<.<.<.<.<.<.>.>.>.>.,.>.^ c c c c c l z CXLXLXLXVX%.T.J.qX7X                                                                                                qX9XG.T.%.ZXLXLXLXbXc c c c c c c ^ ,.,.,.>.>.>.>.<.<.<.<.<.<.<.;.;.].].].].~ c E LXLXLXLXLX}.%.T.G.0XqXqX                                                                                                ",
"                                                                                                              7X7X2X^.E.%.VXLXLXLXLXlXc M :.;.;.;.;.;.;.<.<.<.<.<.>.>.>.>.>.,.,.,.*.b c c c c l l dXLXLXLXGX%.T.^.qX7X                                                                                              wXqX0X^.W.%.AXLXLXPXdXc c c c c c c 2.,.,.,.,.,.>.>.>.>.<.<.<.<.<.<.;.;.;.;.:.b B lXLXLXLXLXZX$.#.R.<XqXqX                                                                                                  ",
"                                                                                                                7X9XP.!.#.fXKXLXLXLXIX} c { ;.;.;.<.<.<.<.<.<.>.>.>.>.,.,.,.,.,.=.1.Q c c l c l c } PXLXLXPX%.T.^.0X7X                                                                                              wXqX4X!.%.}.GXLXLXFX} c c c c c c b =.,.,.,.,.,.,.,.>.>.>.>.<.<.<.<.<.<.<.;.~ c } FXLXLXLXFX}.#.E.J.qX7X                                                                                                    ",
"                                                                                                                qX7X5X^.T.W.mXLXLXLXLXlXc D :.<.<.<.<.<.<.<.>.>.>.,.,.,.,.,.,.,.=.=.~ c c c c c c E FXLXLXLX'.W.!.4X7XqX                                                                                            wXqX5X!.%.aXFXLXLXCXY c c c c c c ~ =.,.=.,.,.,.,.,.,.,.>.>.>.<.<.<.<.<.<.2.b c lXLXLXLXLXkX%.#.^.<XqXqX                                                                                                    ",
"                                                                                                                  7X9XJ.!.W.}.PXLXLXLXPXY c ^ <.<.<.<.>.>.>.>.,.,.,.,.,.,.,.,.=.=.=.^ l l c c c c Y CXLXLXLXfXW.!.2XqXqX                                                                                            qXqX2XT.%.gXPXLXLXbXl c c c c c c *.=.=.=.=.,.,.,.,.,.,.,.,.>.>.>.<.<.<.<.~ c } GXLXLXLXFX%.%.E.P.9XqX                                                                                                      ",
"                                                                                                                  7X7X4X^.!.W.jXLXLXLXLXjXc b <.<.>.>.>.>.,.,.,.,.,.,.,.,.=.=.=.=.c.-.c c c c c c v bXLXLXLXlXT.!.U.qXqX                                                                                            qX9XU.T.%.jXLXLXLXdXc c c c c c b O.=.=.=.=.=.=.,.=.,.,.,.,.,.,.>.>.>.<.2.c c kXLXLXLXPXjX%.#.^.4X7XqX                                                                                                      ",
"                                                                                                                    7XqXY.!.W.'.SXLXLXLXJX] c ^ <.>.>.>.,.,.,.,.,.,.,.=.=.=.=.=.=.c.=.b c c c c c c iXLXLXLXmX%.!.P.9XqX                                                                                            qX9XY.T.%.mXLXLXLXS.c c c c c c P -.c.c.c.=.=.=.=.=.,.,.,.,.,.,.,.,.>.1.~ c ] PXLXLXLXZX%.%.E.U.qX7X                                                                                                        ",
"                                                                                                                    qX7X4X|.!.T.fXPXLXLXLXdXv M 2.>.>.,.,.,.,.,.,.=.=.=.=.=.=.c.c.=.c.~ c c c c c c } LXLXLXVX%.T.J.9XqX                                                                                            7X0XJ.T.%.ZXLXLXPX} b c c c c c ~ -.c.c.c.c.=.=.=.=.=.=.,.,.,.,.,.,.,.*.b B bXLXLXLXPXaX%.T.^.0X7XqX                                                                                                        ",
"                                                                                                                      7XqX2X!.T.#.VXLXLXLXAX] c ^ ,.,.,.,.,.,.=.=.=.=.=.=.=.c.c.c.c.c.^ c c b b c b B PXLXLXAX%.T.|.9XqX                                                                                            7X0X/.T.%.CXLXLXFX] b b c c c c ^ z.z.c.c.c.c.=.=.=.=.=.=.,.,.,.,.,.1.~ c } KXLXLXLXVX%.%.E.2XqXqX                                                                                                          ",
"                                                                                                                      wX7X0XJ.E.T.}.SXLXLXLXbXb c *.,.,.,.=.=.=.=.=.=.c.c.c.c.c.z.z.z.^ b c c b b m B AXLXLXSXW.T./.0X7X                                                                                          wX7X4X^.T.%.GXLXLXAXY c b c c c c o.z.z.z.z.c.c.c.=.=.c.=.=.=.=.,.,.,.^ c v CXLXLXLXJX%.%.W.J.9X7XqX                                                                                                          ",
"                                                                                                                        7X7X4X^.E.#.jXLXLXLXPX] c ~ 1.=.=.=.=.=.=.=.=.c.c.c.z.z.z.z.z.o.b c c b B m m BXLXLXGX'.E.^.0X7XwX                                                                                        wX7X4X^.T.%.HXLXLXVXB b b c b c c -.z.z.z.z.z.c.c.c.c.c.c.=.=.=.=.=.1.b c S.LXLXLXPXjX%.%.E.4X7XqX                                                                                                            ",
"                                                                                                                          7XqXU.^.T.W.mXLXLXLXVXY c ^ =.=.=.=.=.c.c.c.c.c.z.z.z.z.z.z.-.~ b m B m m m lXLXLXJX'.E.^.4X7XqX                                                                                        qX7X<X!.W.%.LXLXLXjXB m B c b b P z.z.z.z.z.z.z.c.c.c.c.c.c.=.=.=.=.^ c ] AXLXLXLXBX%.%.E.Y.qX7X                                                                                                              ",
"                                                                                                                          7X7X0XJ.!.T.}.KXLXLXPXiXc Q *.=.=.c.c.c.c.c.z.z.z.z.z.z.z.z.z.^ b m m m m m dXPXLXPX}.T.!.5X7XwX                    qXqXqXqX7X7XqX7X7X7X7X7X7X7X7X7X7X7X7X7X7XqXqX                      qX7X2X!.W.}.LXLXLXiXm m m B c b ~ z.z.z.z.z.z.z.z.z.c.c.c.c.c.c.=.*.b v dXLXLXLXGX}.%.%.J.0X7XqX                                                                                                              ",
"                                                                                                                            7X7X4X^.!.W.gXPXLXLXKXY c ~ =.c.c.c.c.z.z.z.z.z.z.z.z.z.x.z.^ B m m m m m D.FXLXLX}.E.!.5X7XwX        wXqX7XqXqX7XqX7X7X7X7X7X7XqXqXqX9X9X9XqXqXqXqXqX7X7X7X7X7X7X7XqXqXqXwXwX        qX7XU.!.W.fXLXLXLX} N m m B c b ^ z.z.x.z.z.z.z.z.z.z.z.z.z.c.c.-.~ c S.FXLXLXLXaX%.%.E.5X7XqX                                                                                                                ",
"                                                                                                                              7XqXU.!.W.W.ZXLXLXLXkXY c ^ c.z.z.z.z.z.z.z.z.z.x.x.x.x.x.o.b m m m M N ] AXLXLXfXT.!.2X7X7XqXqXqX7X7X7XqXqX9X0X4X5X2X1XU.-X|.|.|.|.(.(.(.(.|.|.|.|.|.Y.U.2X<X4X0X9XqXqXqX7X7X7X7X7X7X7XU.!.W.gXLXLXLXY N M m B B M ' i.x.x.x.z.z.z.z.z.z.z.z.z.z.c.^ c B AXLXLXLXmX%.%.W.P.qX7X                                                                                                                  ",
"                                                                                                                              7X7X0XJ.!.W.}.SXLXLXKXS.c b O.z.z.z.z.z.z.z.z.x.x.x.i.i.i.O.m m m m N N W CXLXLXjXW.!.U.7X7X7XqXqX9X0X5X1XU.-X|.|.(.(._._._._._._._._._._.~._._._._._._._.(.(.(.|.|.Y.1X3X4X9XqX7X7X7XqXY.!.W.jXLXLXJXm N M m m B M O.i.i.x.x.x.x.z.z.z.z.z.z.z.z.-.b v dXLXLXLXAX'.%.W./.0X7XqX                                                                                                                  ",
"                                                                                                                                7X7X<X^.T.T.gXLXLXLXVXW c ^ z.z.z.z.z.z.x.x.x.x.x.i.i.i.O.M M m N N D N VXLXLXnXW.!.Y.qX9X0X5X1X-X|.(._._._._._._._._._.~.~.~.~.~.~.~.~.~.~.~.~.~.~.~.~.~.~._._._._._._.(.|.U.5X0XqXqXP.!.%.mXLXLXAXN N N m m B ~ O.i.i.i.x.x.x.x.x.z.z.z.z.z.-.~ c ] FXLXLXPXaX%.%.!.2X7XqX                                                                                                                    ",
"                                                                                                                                  7X9X2X!.T.$.mXLXLXLXbXv c o.z.z.x.x.x.x.x.x.i.i.i.i.i.p.~ m m N N D N bXLXLXVXW.!.!.J.|.(._._._._._._._._._.~.~.!.W.T.T.E.E.E.J J J J J [ [ E.E.E.T.W.W.~.~.~.~.~.~.~.~.~.~._.(.|.-X!.~.%.VXLXLXVXD N N M m B ~ p.i.i.i.i.i.i.x.x.x.x.z.z.z.^ b Y kXLXLXPXjX%.%.W.Y.qX7X                                                                                                                      ",
"                                                                                                                                  7X7X9XJ.!.T.'.SXLXLXPXS.b ~ O.z.x.x.x.i.i.i.i.i.i.i.i.p.~ m N N N D G lXLXLXCXW.~.~.~.~.~.~.~.~.~.~.~.T.E.[ J J J J J J H H H J H H H H H H J J J J J J J J [ E.T.~.~.~.~.~.~.~.~.~.~.W.'.AXLXLXbXG N N M m m ^ i.i.i.i.i.i.i.i.i.i.x.x.z.O.b c iXPXLXLXZX2.%.%./.0X7XqX                                                                                                                      ",
"                                                                                                                                    7X7X4X/.!.T.}.KXLXLXFX] b ~ -.x.i.i.i.i.i.i.i.i.i.i.i.~ M N N N D G dXLXLXSXW.~.~.~.~.~.W.#.[ J J J J J J J H H H H H H B.B.H H B.B.B.B.H H H H H H H H H J J J J J J [ $.T.W.~.~.~.{.'.SXLXLXlXD N N m M m ^ i.i.i.i.i.i.i.i.i.i.i.i.O.~ b ] KXLXLXCX}.%.%.!.4XqXqX                                                                                                                        ",
"                                                                                                                                      7X7X2X^.T.T.jXKXLXLXBXY b ^ i.i.i.i.i.i.i.i.i.i.i.i.^ m N N N D G aXLXLXGX'.{.W.T.$.[ J J J J H J J H H H H H H B.B.B.B.B.B.B.B.B.B.B.B.B.B.B.B.B.H H H H H J J J J J J J [ $.%.W.'.'.SXLXPXdXD N N m M M ' i.i.i.i.i.i.i.i.i.i.i.p.^ c Y BXLXLXPXaX%.%.!.2XqXqX                                                                                                                          ",
"                                                                                                                                      qX7X0XY.!.W.W.mXLXLXLXiXB b O.i.i.i.i.i.i.i.i.a.a.a.' m N N G G G S.LXLXJX%.[ [ J J J J J J J H H H H H B.B.B.B.B.B.B.B.B.B.B.B.B.B.B.B.B.B.B.B.B.B.B.B.H H H H H J J J J J J J [ $.'.SXLXKXF.D N N N m N O.i.i.i.i.i.i.i.i.i.i.i.' b c dXLXLXLXjX%.%.%.J.9X7XqX                                                                                                                          ",
"                                                                                                                                        7X7X9X|.!.W.}.VXLXLXKXS.c Q O.i.i.i.i.a.a.a.a.a.a.O.M N N G G G D.GXbXD.G K K J J J J J J H H H H B.B.B.A.`.`.}..XhXnXMXMXVXVXVXMXMXMXnXhX.X}.`.`.A.B.B.B.H H H H H J J J J K K K G { jXVXD.D N N N N D O.a.a.a.a.i.i.i.i.i.i.O.c v D.LXLXLXZX*.%.%./.9X7XqX                                                                                                                            ",
"                                                                                                                                          7X7X4X/.!.W.}.HXLXLXCXE c ! p.i.i.a.a.a.a.a.a.a.O.N N N G G G G { G K J J J J J J J H H H H J `.hXMXDXGXJXPXLXLXLXLXLXLXLXLXLXLXLXLXLXLXLXLXPXFXSXDXMXfXA.H H H H J J J J J K K G G G { G G G N N N ~ O.a.a.a.a.a.i.i.i.i.d.Q c ] AXLXLXCX}.%.%.!.5X7XqX                                                                                                                              ",
"                                                                                                                                            7X7X<X(.!.W.}.FXLXLXCXB c ^ i.a.a.a.a.a.a.a.a.p.D D G G G G G G G K J J J J J J J A.hXnXDXPXLXLXLXLXLXLXLXLXLXLXLXLXLXLXLXLXLXLXLXLXLXLXLXLXLXLXLXLXLXLXJXVXnX.XA.J J J J J J K G G G G G G D N N ~ p.a.a.a.a.a.a.a.a.p.~ c E VXLXLXFX}.%.%.!.2X7X7X                                                                                                                                ",
"                                                                                                                                              7X7X1X(.!.T.}.HXLXLXdXB b ^ i.a.a.a.a.a.a.a.x.D G G G G G G G K K K J J A.}.nXJXLXLXLXLXLXLXLXLXLXLXLXLXLXLXLXLXLXLXLXLXLXLXLXLXLXLXLXLXLXLXLXLXLXLXLXLXLXLXLXLXSXhXD.A.J J K G G G G G G G D D ^ p.a.a.a.a.a.a.a.p.^ b Y CXLXLXFX}.@.%.W.2XqX7X                                                                                                                                  ",
"                                                                                                                                              7X7X9XY.!.T.#.hXJXLXPXdXB M ' a.a.a.a.a.a.i.*.G G G G G G G G K K K A.nXGXPXLXLXLXLXLXLXLXLXLXLXLXLXLXLXLXLXLXLXLXLXLXLXLXLXLXLXLXLXLXLXLXLXLXLXLXLXLXLXLXLXLXLXLXLXPXAXjXA.G G G G G G G G G G ~ O.i.a.a.a.a.a.i.^ b Y kXLXLXPXaX*.%.%.P.qXqXqX                                                                                                                                  ",
"                                                                                                                                                7X7X0XY.!.T.W.hXPXLXKXdXm M ` i.a.a.a.O.~ D G G G G G G G G A.hXDXLXLXLXLXLXLXLXLXLXLXLXLXLXLXLXLXLXLXLXLXLXLXLXLXLXLXLXLXLXLXLXLXLXLXLXLXLXLXLXLXLXLXLXLXLXLXLXLXLXLXLXLXVXhX{ G G G G G G G D D ~ O.p.a.a.a.^ M M kXLXLXKXgX*.%.%.|.9X7XqX                                                                                                                                    ",
"                                                                                                                                                  7X7X0XJ.!.T.W.jXLXLXKXS.M D ' p.d.^ ~ N G G G G G G J D.hXAXPXLXLXLXLXLXLXLXLXLXLXLXLXLXLXLXLXLXLXLXLXLXLXLXLXLXLXLXLXLXLXLXLXLXLXLXLXLXLXLXLXLXLXLXLXLXLXLXLXLXLXLXLXLXLXPXCXhXD.G G G G G G D N ~ ^ d.p.' M Y dXPXLXPXjX2.*.%.(.4X7XqX                                                                                                                                      ",
"                                                                                                                                                    7X7X4X/.!.!.W.CXLXLXFXD.m M ^ ~ N N D G G G G G A.jXGXLXLXLXLXLXLXLXLXLXLXLXLXLXLXLXLXLXLXLXLXLXLXLXLXLXLXLXLXLXLXLXLXLXLXLXLXLXLXLXLXLXLXLXLXLXLXLXLXLXLXLXLXLXLXLXLXLXLXLXLXGXhX{ G G G G D N m M ~ ^ M B dXPXLXLXjX2.2.:.W.4X7X7X                                                                                                                                        ",
"                                                                                                                                                      7X7X4X/.!.~.'.VXLXLXLXD.m m N N N G G G G { nXLXLXLXLXLXLXLXLXLXLXLXLXLXLXLXLXLXLXLXLXLXLXLXLXLXLXLXLXLXLXLXLXLXLXLXLXLXLXLXLXLXLXLXLXLXLXLXLXLXLXLXLXLXLXLXLXLXLXLXLXLXLXLXLXLXJXlX{ G G D N N m N N M lXPXLXLXkX2.2.:.!.5X7X7X                                                                                                                                          ",
"                                                                                                                                                        7X7X<X(._.~.}.VXLXKXD.m N N D D G G W hXGXLXLXLXLXLXLXLXLXLXLXLXLXLXLXLXLXLXLXLXLXLXLXLXLXLXLXLXLXLXLXLXLXLXLXLXLXLXLXLXLXLXLXLXLXLXLXLXLXLXLXLXLXLXLXLXLXLXLXLXLXLXLXLXLXLXLXLXLXAXaXN N N N N N N M iXFXLXkX2.2.2.%.3X7X7X                                                                                                                                            ",
"                                                                                                                                                        7X7X9X-X_.~.~.'.lX] M N N N D N G aXGXLXLXLXLXLXLXLXLXLXLXLXLXLXLXLXLXLXLXLXLXLXLXLXLXLXLXLXLXLXLXLXLXLXLXLXLXLXLXLXLXLXLXLXLXLXLXLXLXLXLXLXLXLXLXLXLXLXLXLXLXLXLXLXLXLXLXLXLXLXLXLXLXVXS.N N N N N B B ] aX2.2.2.:._.qX7X7X                                                                                                                                            ",
"                                                                                                                                                      7X7X7X2X/.!.~.W.[ M M M N N N N } jXKXLXLXLXLXLXLXLXLXLXLXLXLXLXLXLXLXLXLXLXLXLXLXLXLXLXLXLXLXLXLXLXLXLXLXLXLXLXLXLXLXLXLXLXLXLXLXLXLXLXLXLXLXLXLXLXLXLXLXLXLXLXLXLXLXLXLXLXLXLXLXLXLXLXLXFXjX] N M M B B M M { 2.2.2.W.2X9X7X8X                                                                                                                                          ",
"                                                                                                                                                    qX7X6X5X/.!.!.T.{ m M M m N D G D.AXLXLXLXLXLXLXLXLXLXLXLXLXLXLXLXLXLXLXLXLXLXLXLXLXLXLXLXLXLXLXLXLXLXLXLXLXLXLXLXLXLXLXLXLXLXLXLXLXLXLXLXLXLXLXLXLXLXLXLXLXLXLXLXLXLXLXLXLXLXLXLXLXLXLXLXLXLXLXCXS.N M M B M B B ~ *.2.2.W.1X7X7XqX                                                                                                                                        ",
"                                                                                                                                                  qX7X9XU.(.!.!.$.M v B M m m N } CXLXLXLXLXLXLXLXLXLXLXLXLXLXLXLXLXLXLXLXLXLXLXLXLXLXLXLXLXLXLXLXLXLXLXLXLXLXLXLXLXLXLXLXLXLXLXLXLXLXLXLXLXLXLXLXLXLXLXLXLXLXLXLXLXLXLXLXLXLXLXLXLXLXLXLXLXLXLXLXLXLXLXBX} M B B B B v M { 2.2.:.-X0X7XqX                                                                                                                                      ",
"                                                                                                                                                qX7X9X2X(.!.!.[ N B B B M m W iXAXLXLXLXLXLXLXLXLXLXLXLXLXLXLXLXLXLXLXLXLXLXLXLXLXLXLXLXLXLXLXLXLXLXLXLXLXLXLXLXLXLXLXLXLXLXLXLXLXLXLXLXLXLXLXLXLXLXLXLXLXLXLXLXLXLXLXLXLXLXLXLXLXLXLXLXLXLXLXLXLXLXLXLXLXCXiXB M B B v v Y ^ 2.2.:.-X9X7XqX                                                                                                                                    ",
"                                                                                                                                              qX7X9X1X(.!._.$.M B B B B M B lXJXLXLXLXLXLXLXLXLXLXLXLXLXLXLXLXLXLXLXLXLXLXLXLXLXLXLXLXLXLXLXLXLXLXLXLXLXLXLXLXLXLXLXLXLXLXLXLXLXLXLXLXLXLXLXLXLXLXLXLXLXLXLXLXLXLXLXLXLXLXLXLXLXLXLXLXLXLXLXLXLXLXLXLXLXLXLXKXS.B B B B v v B *.2.2.:.;XqX7XqX                                                                                                                                  ",
"                                                                                                                                            qX7XqXU.(._._.#.B v B B B B W BXLXLXLXLXLXLXLXLXLXLXLXLXLXLXLXLXLXLXLXLXLXLXLXLXLXLXLXLXLXLXLXLXLXLXLXLXLXLXLXLXLXLXLXLXLXLXLXLXLXLXLXLXLXLXLXLXLXLXLXLXLXLXLXLXLXLXLXLXLXLXLXLXLXLXLXLXLXLXLXLXLXLXLXLXLXLXLXLXLXLXdXY B b v v v B | 2.2.:.1XqX7XwX                                                                                                                                ",
"                                                                                                                                          qX7XqX2X(._._.#.M B v v B B W AXLXLXLXLXLXLXLXLXLXLXLXLXLXLXLXLXLXLXLXLXLXLXLXLXLXLXLXLXLXLXLXLXLXLXLXLXLXLXLXLXLXLXLXLXLXLXLXLXLXLXLXLXLXLXLXLXLXLXLXLXLXLXLXLXLXLXLXLXLXLXLXLXLXLXLXLXLXLXLXLXLXLXLXLXLXLXLXLXLXLXLXPXbXB b v v B B B *.1.2.{.1X7X7XqX                                                                                                                              ",
"                                                                                                                                          qXqX2X(._._.#.B B B B B v D.AXLXLXLXLXLXLXLXLXLXLXLXLXLXLXLXLXLXLXLXLXLXLXLXLXLXLXLXLXLXLXLXLXLXLXLXLXLXLXLXLXLXLXLXLXLXLXLXLXLXLXLXLXLXLXLXLXLXLXLXLXLXLXLXLXLXLXLXLXLXLXLXLXLXLXLXLXLXLXLXLXLXLXLXLXLXLXLXLXLXLXLXLXLXLXVXE B v B v B Y | 2.2.{.1X7X7X                                                                                                                              ",
"                                                                                                                                        7XqX4X/._._.#.D v v B B B S.CXLXLXLXLXLXLXLXLXLXLXLXLXLXLXLXLXLXLXLXLXLXLXLXLXLXLXLXLXLXLXLXLXLXLXLXLXLXLXLXLXLXLXLXLXLXLXLXLXLXLXLXLXLXLXLXLXLXLXLXLXLXLXLXLXLXLXLXLXLXLXLXLXLXLXLXLXLXLXLXLXLXLXLXLXLXLXLXLXLXLXLXLXLXLXLXLXVX] B B v v v ~ *.2.2.~.5X7X7X                                                                                                                            ",
"                                                                                                                                      qX7X4X|.!.!.T.D b v v B B ] FXLXLXLXLXLXLXLXLXLXLXLXLXLXLXLXLXLXLXLXLXLXLXLXLXLXLXLXLXLXLXLXLXLXLXLXLXLXLXLXLXLXLXLXLXLXLXLXLXLXLXLXLXLXLXLXLXLXLXLXLXLXLXLXLXLXLXLXLXLXLXLXLXLXLXLXLXLXLXLXLXLXLXLXLXLXLXLXLXLXLXLXLXLXLXLXLXLXLXZX] B v v v v ~ 2.2.2._.0X7X7X                                                                                                                          ",
"                                                                                                                                    qX7X9XY.(.!.T.M v v v B B } AXLXLXLXLXLXLXLXLXLXLXLXLXLXLXLXLXLXLXLXLXLXLXLXLXLXLXLXLXLXLXLXLXLXLXLXLXLXLXLXLXLXLXLXLXLXLXLXLXLXLXLXLXLXLXLXLXLXLXLXLXLXLXLXLXLXLXLXLXLXLXLXLXLXLXLXLXLXLXLXLXLXLXLXLXLXLXLXLXLXLXLXLXLXLXLXLXLXLXLXLXCX] B v v v v ~ *.2.2._.9X7XqX                                                                                                                        ",
"                                                                                                                                  qXqXqX2X^.!.!.G l l v v b ] CXLXLXLXLXLXLXLXLXLXLXLXLXLXLXLXLXLXLXLXLXLXLXLXLXLXLXLXLXLXLXLXLXLXLXLXLXLXLXLXLXLXLXLXLXLXLXLXLXLXLXLXLXLXLXLXLXLXLXLXLXLXLXLXLXLXLXLXLXLXLXLXLXLXLXLXLXLXLXLXLXLXLXLXLXLXLXLXLXLXLXLXLXLXLXLXLXLXLXLXLXLXLXAXY v v v l z ^ 2.2.2.;X9X7X                                                                                                                        ",
"                                                                                                                                  qXqX4X^.!.!.{ l l c v v E IXLXLXLXLXLXLXLXLXLXLXLXLXLXLXLXLXLXLXLXLXLXLXLXLXLXLXLXLXLXLXLXLXLXLXLXLXLXLXLXLXLXLXLXLXLXLXLXLXLXLXLXLXLXLXLXLXLXLXLXLXLXLXLXLXLXLXLXLXLXLXLXLXLXLXLXLXLXLXLXLXLXLXLXLXLXLXLXLXLXLXLXLXLXLXLXLXLXLXLXLXLXLXLXLXCXE v l l l v ^ 2.2.2.1XqXqX                                                                                                                      ",
"                                                                                                                                qXqX4X|.(.!.[ l l l l c W AXLXLXLXLXLXLXLXLXLXLXLXLXLXLXLXLXLXLXLXLXLXLXLXLXLXLXLXLXLXLXLXLXLXLXLXLXLXLXLXLXLXLXLXLXLXLXLXLXLXLXLXLXLXLXLXLXLXLXLXLXLXLXLXLXLXLXLXLXLXLXLXLXLXLXLXLXLXLXLXLXLXLXLXLXLXLXLXLXLXLXLXLXLXLXLXLXLXLXLXLXLXLXLXLXLXLXCXY l z l z z o.-.2.{.3XqXqX                                                                                                                    ",
"                                                                                                                              wXqX0XU.(.!.#.B l l l l v BXLXLXLXLXLXLXLXLXLXLXLXLXLXLXLXLXLXLXLXLXLXLXLXLXLXLXLXLXLXLXLXLXLXLXLXLXLXLXLXLXLXLXLXLXLXLXLXLXLXLXLXLXLXLXLXLXLXLXLXLXLXLXLXLXLXLXLXLXLXLXLXLXLXLXLXLXLXLXLXLXLXLXLXLXLXLXLXLXLXLXLXLXLXLXLXLXLXLXLXLXLXLXLXLXLXLXLXLXlXY l l l z P O.-.2._.qX7XqX                                                                                                                  ",
"                                                                                                                              7XqXU.(._._.D l l l l Y dXLXLXLXLXLXLXLXLXLXLXLXLXLXLXLXLXLXLXLXLXLXLXLXLXLXLXLXLXLXLXLXLXLXLXLXLXLXLXLXLXLXLXLXLXLXLXLXLXLXLXLXLXLXLXLXLXLXLXLXLXLXLXLXLXLXLXLXLXLXLXLXLXLXLXLXLXLXLXLXLXLXLXLXLXLXLXLXLXLXLXLXLXLXLXLXLXLXLXLXLXLXLXLXLXLXLXLXLXLXLXdXl l l l z ~ -.-.1.-XqXqX                                                                                                                  ",
"                                                                                                                            7XqX4X/.(._.[ v l l l l iXKXLXLXLXLXLXLXLXLXLXLXLXLXLXLXLXLXLXLXLXLXLXLXLXLXLXLXLXLXLXLXLXLXLXLXLXLXLXLXLXLXLXLXLXLXLXLXLXLXLXLXLXLXLXLXLXLXLXLXLXLXLXLXLXLXLXLXLXLXLXLXLXLXLXLXLXLXLXLXLXLXLXLXLXLXLXLXLXLXLXLXLXLXLXLXLXLXLXLXLXLXLXLXLXLXLXLXLXLXLXLXGX} l l l l v | -.-.:.5XqXwX                                                                                                                ",
"                                                                                                                          7X7X9XY.(._.!.M c c l l } AXLXLXLXLXLXLXLXLXLXLXLXLXLXLXLXLXLXLXLXLXLXLXLXLXLXLXLXLXLXLXLXLXLXLXLXLXLXLXLXLXLXLXLXLXLXLXLXLXLXLXLXLXLXLXLXLXLXLXLXLXLXLXLXLXLXLXLXLXLXLXLXLXLXLXLXLXLXLXLXLXLXLXLXLXLXLXLXLXLXLXLXLXLXLXLXLXLXLXLXLXLXLXLXLXLXLXLXLXLXLXLXLXCXY l l l v ~ 2.-.-.%XqXqX                                                                                                                ",
"                                                                                                                          7X7X2X(._._.{ v v c l v CXLXLXLXLXLXLXLXLXLXLXLXLXLXLXLXLXLXLXLXLXLXLXLXLXLXLXLXLXLXLXLXLXLXLXLXLXLXLXLXLXLXLXLXLXLXLXLXLXLXLXLXLXLXLXLXLXLXLXLXLXLXLXLXLXLXLXLXLXLXLXLXLXLXLXLXLXLXLXLXLXLXLXLXLXLXLXLXLXLXLXLXLXLXLXLXLXLXLXLXLXLXLXLXLXLXLXLXLXLXLXLXLXLXLXlXY c c v v ^ -.-.1.tXqXqX                                                                                                              ",
"                                                                                                                        7X7X9X/.(._.$.m v v v v dXLXLXLXLXLXLXLXLXLXLXLXLXLXLXLXLXLXLXLXLXLXLXLXLXLXLXLXLXLXLXLXLXLXLXLXLXLXLXLXLXLXLXLXLXLXLXLXLXLXLXLXLXLXLXLXLXLXLXLXLXLXLXLXLXLXLXLXLXLXLXLXLXLXLXLXLXLXLXLXLXLXLXLXLXLXLXLXLXLXLXLXLXLXLXLXLXLXLXLXLXLXLXLXLXLXLXLXLXLXLXLXLXLXLXLXPXiXv v v v b | c.-.[.9X7XwX                                                                                                            ",
"                                                                                                                        7X9X2X(._.T.D v c v v D.PXLXLXLXLXLXLXLXLXLXLXLXLXLXLXLXLXLXLXLXLXLXLXLXLXLXLXLXLXLXLXLXLXLXLXLXLXLXLXLXLXLXLXLXLXLXLXLXLXLXLXLXLXLXLXLXLXLXLXLXLXLXLXLXLXLXLXLXLXLXLXLXLXLXLXLXLXLXLXLXLXLXLXLXLXLXLXLXLXLXLXLXLXLXLXLXLXLXLXLXLXLXLXLXLXLXLXLXLXLXLXLXLXLXLXLXLXAX} v c v v Y -.-.-.-XqX7X                                                                                                            ",
"                                                                                                                      qX7X4X|.(.!.{ b c c v Y CXLXLXLXLXLXLXLXLXLXLXLXLXLXLXLXLXLXLXLXLXLXLXLXLXLXLXLXLXLXLXLXLXLXLXLXLXLXLXLXLXLXLXLXLXLXLXLXLXLXLXLXLXLXLXLXLXLXLXLXLXLXLXLXLXLXLXLXLXLXLXLXLXLXLXLXLXLXLXLXLXLXLXLXLXLXLXLXLXLXLXLXLXLXLXLXLXLXLXLXLXLXLXLXLXLXLXLXLXLXLXLXLXLXLXLXLXLXLXbXv c v v v ^ -.-.{.4X7X7X                                                                                                          ",
"                                                                                                                      7X9XU.(.!.T.c c c c B iXLXLXLXLXLXLXLXLXLXLXLXLXLXLXLXLXLXLXLXLXLXLXLXLXLXLXLXLXLXLXLXLXLXLXLXLXLXLXLXLXLXLXLXLXLXLXLXLXLXLXLXLXLXLXLXLXLXLXLXLXLXLXLXLXLXLXLXLXLXLXLXLXLXLXLXLXLXLXLXLXLXLXLXLXLXLXLXLXLXLXLXLXLXLXLXLXLXLXLXLXLXLXLXLXLXLXLXLXLXLXLXLXLXLXLXLXLXLXLXPX} v l l l P O.-.-.:X7X7X                                                                                                          ",
"                                                                                                                    qX7X5X/.(.!.D z l c c D.KXLXLXLXLXLXLXLXLXLXLXLXLXLXLXLXLXLXLXLXLXLXLXLXLXLXLXLXLXLXLXLXLXLXLXLXLXLXLXLXLXLXLXLXLXLXLXLXLXLXLXLXLXLXLXLXLXLXLXLXLXLXLXLXLXLXLXLXLXLXLXLXLXLXLXLXLXLXLXLXLXLXLXLXLXLXLXLXLXLXLXLXLXLXLXLXLXLXLXLXLXLXLXLXLXLXLXLXLXLXLXLXLXLXLXLXLXLXLXLXLXGXE v l l z ^ -.-.2.4X7XqX                                                                                                        ",
"                                                                                                                    qXqXY.(.!.$.c l l z v bXLXLXLXLXLXLXLXLXLXLXLXLXLXLXLXLXLXLXLXLXLXLXLXLXLXLXLXLXLXLXLXLXLXLXLXLXLXLXLXLXLXLXLXLXLXLXLXLXLXLXLXLXLXLXLXLXLXLXLXLXLXLXLXLXLXLXLXLXLXLXLXLXLXLXLXLXLXLXLXLXLXLXLXLXLXLXLXLXLXLXLXLXLXLXLXLXLXLXLXLXLXLXLXLXLXLXLXLXLXLXLXLXLXLXLXLXLXLXLXLXLXLXdXl z c z P o.-.-.%X9XqX                                                                                                        ",
"                                                                                                                  qXqX4X(.(.!.D l l l z E FXLXLXLXLXLXLXLXLXLXLXLXLXLXLXLXLXLXLXLXLXLXLXLXLXLXLXLXLXLXLXLXLXLXLXLXLXLXLXLXLXLXLXLXLXLXLXLXLXLXLXLXLXLXLXLXLXLXLXLXLXLXLXLXLXLXLXLXLXLXLXLXLXLXLXLXLXLXLXLXLXLXLXLXLXLXLXLXLXLXLXLXLXLXLXLXLXLXLXLXLXLXLXLXLXLXLXLXLXLXLXLXLXLXLXLXLXLXLXLXLXLXLXKXY z z z z ^ -.-.:.5X7X9X                                                                                                      ",
"                                                                                                    0X0X0X0X0X0X9X7XqXY.(._.#.l l l z z bXLXLXLXLXLXLXLXLXLXLXLXLXLXLXLXLXLXLXLXLXLXLXLXLXLXLXLXLXLXLXLXLXLXLXLXLXLXLXLXLXLXLXLXLXLXLXLXLXLXLXLXLXLXLXLXLXLXLXLXLXLXLXLXLXLXLXLXLXLXLXLXLXLXLXLXLXLXLXLXLXLXLXLXLXLXLXLXLXLXLXLXLXLXLXLXLXLXLXLXLXLXLXLXLXLXLXLXLXLXLXLXLXLXLXLXLXLXLXLXLXLXLXLXLXdXv z z z z O.-.-.&XqX9X=X$X$X$X].].                                                                                          ",
"                                                                                                0X0X9X0X0X4X5X5X0X0X5X/.!.!.{ l z z z Y GXFXFXFXJXJXJXJXJXJXJXJXJXJXJXKXKXHXKXKXHXJXHXKXKXKXKXHXHXKXHXKXHXHXHXKXKXKXKXKXKXPXPXPXLXLXLXLXLXLXLXLXLXLXLXLXLXLXLXLXLXLXLXLXLXLXLXLXLXLXLXLXLXLXLXLXLXLXLXLXLXLXPXPXPXKXKXHXHXKXPXKXKXKXHXKXKXKXKXKXKXKXKXKXJXJXKXKXKXKXKXJXKXJXJXJXJXJXJXJXJXJXFXFXFXCXE z z z z ! O.O.{.3X4X>X].].].].].].].].                                                                                    ",
"                                                                                            0X9X4XK.C 3 # O # # # # # + + # X + + X . . . . . . + @ + @ @ @ @ @ @ + @ + @ $ $ % % % % * * , 3 3 3 4 4 4 4 x x x x x n n Z Z Z Z A A.D.hXVXHXLXLXLXLXLXLXLXLXLXLXLXLXLXLXLXLXLXLXLXLXLXLXLXLXLXLXFXbXfXD.[ A Z n x x x x x k 4 4 4 4 3 3 * * % % % % % $ $ $ $ + @ @ @ @ + @ . . @ . . . . . . . . . . . . . . . . X X # # # X X X $ , b *.].].3.                                                                                ",
"                                                                                          9X0XK.C & O . . . . X X X . X X X X + . . . . . . . . . + + + + + + + + $ $ $ $ $ % % % % % * * * 3 3 3 3 3 4 x x x h x n x n n Z Z Z Z Z A A J A.nXSXLXLXLXLXLXLXLXLXLXLXLXLXLXLXLXLXLXLXLXLXLXLXDXhXA.K A Z Z Z n n n x x x x k j 3 3 3 3 = * * * % % % % % $ $ $ $ + + + + + + + X X X . . . . . . . . . . . . . . . X X X X X X X X . X X : z *.3.3.                                                                              ",
"                                                                                        9X0XL.& O . . . . . . . . . . X X X X . . . . . . . . . . @ + + + + + + $ $ $ $ $ $ $ $ % % % % * * * 3 3 3 3 3 4 4 x x x x x n x n n Z Z Z Z Z Z Z A A.VXLXLXLXLXLXLXLXLXLXLXLXLXLXLXLXLXLXLXLXLXnXA.Z Z Z Z Z Z n n n x x x x x k 3 3 3 3 = * * * % % % % % - $ $ $ $ + + + + + + + X X . . . . . . . . . . . . . . . X X X X X X X . . . X X X . : ^ 3.3.                                                                            ",
"                                                                                      9X0XV.# . . O . O . O O . . . X X X + X + + + X + X . . X + + + + + + + $ $ $ $ $ $ $ & & % & % % & * * 3 3 3 3 3 3 3 j j x h x x x n n n Z Z Z Z Z Z Z A A hXJXLXLXLXLXLXLXLXLXLXLXLXLXLXLXLXLXGXD.Z Z Z Z Z n n n n x x h h x j j 3 3 3 3 3 = = * % % % % % $ $ $ $ $ $ + + + + + + + X X X . . . . . . . . . . . . . . X X X X X X . . . . X X . . . $ ^ 3.3.                                                                          ",
"                                                                                      9XK.& . . . . O # C C.Z.Z.Z.Z.V.V.V.V.V.V.V.V.V.V.V.Z.Z.Z.Z.Z.V.V.V.V.V.V.V.V.V.V.V.V.V.V.V.V.V.V.V.V.V.V.I.I.V.I.I.I.I.I.I.I.I.I.I.I.I.I.V.L C Z Z Z Z Z A A A.JXLXLXLXLXLXLXLXLXLXLXLXLXLXLXSXD.Z Z Z Z Z n n Z K B. X X X XQ.Q.Q.Q.A.A.A.A.A.A.A.A.A.A.A.A.A.A.A.A.} } } } } } } } } | | | | | | | | | | ( ( ( ( ( ( ( ( 5.5.5.( ( ) ) ) 2 1 . . . . . $ :.3.                                                                          ",
"                                                                                    9X0X3 X . . O & V.0XwXwXwXwXwX9X9X9XwXwXwXwXwX9X9XwX9XwXwXwX9X9X9X9X9XwXwXwX9XwXwX9XwXwXwXwXwXwXwXwXwXwXwXwXwXwXwXwXeXeXeXeXeXeXeXeXeXeXeXeXeXeXeXrXV.Z Z Z Z Z Z G jXPXLXLXLXLXLXLXLXLXLXLXHXnXA Z Z Z Z Z A V.tXyXyXuXuXuXuXuXuXuXuXuXuXuXuXuXuXuXuXuXNXNXNXNXNXNXNXNXNXxXxXxXxXxXxXxXxXxXxXxXxXxXzXzXzXcXvXcXcXcXcXcXcXcXcXcXcXcXcXcXcXcXcXcXcX8.1 . . . . 5 <.3.                                                                        ",
"                                                                                    9XV.X X X X 3 <X9X<XK.K.K.K.L.L.L.L.K.K.L.K.L.L.L.L.L.L.L.K.K.K.L.L.L.L.L.L.L.L.L.L.L.L.L.L.L.L.L.L.L.L.L.L.L.L.L.L.P.P.P.P.P.P.P.P.P.P.P.P.P.U.5XeXeX5XC.Z n Z Z Z Z A A.F.hXhXhXhXhXdXF.A.A Z n n n n Z V.yXyXuX%X(.!.~.~.~.&.&.&.&.&.&.&.@.@.@.*.*.*.*.*.*.o.o.o.o.o.o.o.o.o.o.o.O.o.O.O.X.X.X.X.X.X.X.X.X.X.X.X.X.X.X.X.X.X.X.X.X.X.X.X.d.d.n.N.M.; . . X X ^ 3.                                                                        ",
"                                                                                  9X0X3 . X X & K.wXL.K.K.K.L.K.K.K.K.K.K.K.K.K.K.K.K.K.K.K.K.L.K.K.K.K.K.K.K.K.L.L.L.L.P.L.L.L.L.L.L.P.P.P.P.P.P.L.P.P.P.P.P.P.P.P.P.P.P.P.P.P.P.P.-XY.2XeXeXV.h n n n Z Z Z Z Z Z Z Z Z Z Z Z n n n n x Z P.yXuX*X_.~.~.~.~.:.:.:.&.&.&.&.&.&.*.*.*.*.*.*.*.o.o.o.o.o.o.o.o.o.o.o.o.o.O.O.O.O.O.X.X.X.X.X.X.X.X.X.X.X.X.X.X.X.X.X.X.X.X.X.X.X.X.X.X.d.cXm.X . X X , 3.3.                                                                      ",
"                                                                                  9X<X$ . . X C.eX<XK.I.L h h h h h h h h h h h h h h h h h h h h h h h h h h h h h h h h h h h h h h h n Z Z Z Z Z Z Z Z Z Z Z Z A A A A A A A K B.J.|.|.Y.5XeXK.Z n n n n n n n n n n n n n n n n n n A tXyX:X!.~.~.#.[ G D N N N m m b b c c c c c z z z 5 5 5 5 5 5 5 5 5 5 5 5 5 5 5 5 5 5 > > > > > > > > > > > 5 5 5 5 5 5 5 5 > 5 > > > > i _ X.m.cXT X . . . :.].                                                                      ",
"                                                                                  9XI.O . . . rX0XL.K.Z # . . . . . . . . . . . . . . . . . . . . . . . . . . . X + + + + + + $ $ $ $ $ $ $ & & & & & * * = = * 3 3 3 3 3 3 3 j j x n H G.|.P.5XeXrXC.Z n x x x n n x n n x x x x x Z C.tXyX-X!.!.#.G V k 3 = = = = = = = * % % % % % - $ $ $ $ $ $ $ $ + + + + + + X X X X . . . . . . . . . . . . X X X X X X X . . . . . . . . o q X.d.cX9.; . . . { ].                                                                      ",
"                                                                                  9XV.. . . O 4X5XL.I.& . . . . . . . . . . . . . . . . . . . . . . . . . . . . . X X + + + + $ $ $ $ $ $ - - % % % % % % * * * * * = 3 3 3 3 j j j x j A G.|.|.1XeXeXK.C.C h h h h h h h h h h Z C.;XyXyX|.!.!.$.V 3 3 3 3 = * * * * * % % % % % % - - $ $ $ $ $ $ $ $ + + + + + X X X X X . . . . . . . . . . . X X X X X X . . . . . . . . . . . < ` d.N.M.; . . . ^ ].                                                                      ",
"                                                                                9X6XL . . . # 0X<XL.I.$ . . . . . . . . . . . . . . . . . @ ; > > 5 T R R T T R R R R R R R R R R R R ) ) ) ) ) ) ) ) ) ` ` ` ` ` ` ` ` ` ` ) U l k j 3 3 x Q.|.|.|.3XeXeXeXyXyXyXyXyXyXyXyXyXyXyXyXyX:X_._.~.[ j = 3 = , z U ` 8.8.8.` ` ` ` ` ` ` ) ) ) ) ) ' ) R R R / R / R R R R R R R U T T T T T > > > ; $ X X X X X X . . . . . . . . . . . ; / d.n.N.> . . . ~ ].                                                                      ",
"                                                                                9X6XC . . O # wX<XK.V.$ X X X . . . . . . . . . . . . . < 8 7 7 7 9 R ( ) ) ) ) ( ( ( ( ( 8.8.8.8.8.9.9.9.9.9.9.t.t.t.t.t.t.t.y.y.y.y.y.y.y.m.m.t.U 3 3 3 3 x H (././.J.Y.1X1XtXtXtXtXtXtXtXtXtX-X|.(.!.!.~.G k 3 = = , U t.g.g.g.g.g.y.y.y.y.t.t.t.t.t.t.t.9.9.9.9.9.9.8.8.8.8.5.( 5.( ( ( ) ) ) ) ) I 7 7 7 7 8 > 1 X . . . . . . . . . . . . . . $ / d.m.cX> . X . b 3.                                                                      ",
"                                                                                9X9XC . . O # wXrXK.V.+ X . X . . . . . . . . . . . ; > 8 8 7 7 7 9 r ) ) ) ( ( ( ( ( ( ( 8.8.8.8.8.8.9.9.9.9.9.t.t.t.t.t.t.t.y.y.y.y.y.y.y.m.m.m.y.` 4 3 3 3 j n J ^./././././.(.(.^.^.^.^.(.(.(.!.!.E.J k 3 3 = = 5 ` m.m.m.g.g.g.g.g.y.y.t.t.t.t.t.t.t.9.9.9.9.9.9.9.8.8.8.8.5.5.( ( ( ( ) ) ) ) ) q 7 7 7 7 7 7 8 ; . . . . . . . . . . . . . . $ i X.y.cX2 X . X b 3.].                                                                    ",
"                                                                                9X9XC . . . # wXrXK.V.+ X X X . . . . . . . . . . ; > 8 8 7 7 7 7 9 q R ) ) ) ( ( ( ( ( 8.8.8.8.8.8.9.9.9.9.9.9.t.t.t.t.t.t.y.y.y.y.y.y.g.g.g.m.m.m.g./ 3 3 3 3 3 k n K H.R.R.R.R.H.H.H.R.R.R.R.E.[ G n 3 * 3 = = , ` m.m.m.m.g.g.g.g.y.y.y.y.t.t.t.t.t.t.t.9.9.9.9.9.9.9.8.8.8.5.5.5.( ( ( ( ) ) ) R q 9 7 7 7 7 7 8 > 1 . . . . . . . . . . . . . 1 i _ y.cX2 X X X b 3.].                                                                    ",
"                                                                                9X9XC O . . # eXrXK.V.+ . . . . . . . . . . . . X > 8 8 8 7 7 7 7 9 q r ) ) ) ( ( ( ( ( 8.8.8.8.8.8.9.9.9.9.9.t.t.t.t.t.t.t.t.y.y.y.y.y.g.g.m.m.m.m.n.b.z , * * * 3 3 3 j x n n n n n x n n n n k j 3 * * * * * * z m.n.m.m.m.m.g.g.g.y.y.y.y.t.t.t.t.t.t.t.9.9.9.9.9.9.9.8.8.8.8.8.5.( ( ( ( ) ) ) r q 9 9 7 7 7 8 8 8 > . . . . . . . . . . . . . 1 i _ y.N.2 X X X b 3.].                                                                    ",
"                                                                                9X9XL . . . # eX<XK.V.$ . . . . . . . . . . . . < 8 8 7 7 7 7 7 7 9 q q R ) ( ) ( ( ( ( 8.8.8.8.8.9.9.9.9.9.9.t.t.t.t.t.t.t.y.y.y.y.g.g.g.g.m.m.m.m.n.n.! * * * * * = = = * * * * * * * * * * * * * * * * * % % : ` n.n.n.k.k.k.m.g.g.g.g.y.y.y.t.t.t.t.t.t.t.q.9.9.9.9.8.8.8.8.8.5.( ( ( ( ( ) ) R q q 9 9 7 7 7 8 8 8 8 ; . . . . . . . X X X . . ; s X.s.N.> . . X P ].                                                                      ",
"                                                                                  6XC.. . . # 0X<XK.H.& . . . . . . . . . . . X > 8 8 7 7 7 7 7 9 9 q q w ) ( ( ( ( ( ( 8.8.8.8.8.9.9.9.9.9.9.t.t.t.t.t.t.u.y.y.y.y.g.g.g.g.k.m.m.n.n.j.' % % * * * = * * * * * 6 k k k k , * * * * * * % % % % , t.n.n.n.j.k.k.k.g.g.g.g.y.y.y.y.u.u.t.t.t.t.9.9.9.0.9.8.8.8.8.8.5.( ( ( ( ( ) ) w q q 9 9 7 7 7 8 8 8 8 < . . . . . . . X . . . . ; ' _ n.n.; . . . ~ $X                                                                      ",
"                                                                                  9XI.. . . . <X5XK.I.j . . . . . . . . . . . $ 8 8 7 7 7 7 7 7 9 q q q w R ( ( ( ( ( ( 8.8.8.8.8.9.9.0.9.9.9.t.t.t.t.t.t.u.y.y.y.y.g.g.g.k.k.k.k.n.n.n.` : % % % % = = * , l D ^ ..@.@.^ ~ m k = % % % % % % % , t.n.j.j.j.k.k.k.g.g.g.g.y.y.y.y.u.u.t.t.t.t.q.9.9.0.0.8.8.8.8.8.5.( ( ( ( ( ) R w q q q 9 7 7 7 7 8 8 8 > o . . . . . . X . . . X 8 _ X.N.q.1 . . . ^ $X                                                                      ",
"                                                                                  9XrX# . . X Z.0XL.K.I.Z 3 3 & $ . . . . . . ; 8 8 7 7 7 7 7 7 9 q q q w w ) ( ( ( ( 5.8.8.8.8.8.8.0.0.9.9.q.q.t.t.t.t.u.u.y.y.y.g.g.g.k.k.k.k.k.j.j.j.` % % % % % % 6 D @.@.@.@.@.@.@.@.@.@.@.@.m , % % % % % , t.n.j.j.j.k.k.k.g.g.g.g.g.y.y.y.y.u.t.t.t.q.q.9.9.0.0.8.8.8.8.8.5.5.( ( ( ( R w w q q q 9 9 7 7 7 8 8 8 > ; . . . . . X $ < > > I ` X.u.N.0 . . . . *.].                                                                      ",
"                                                                                  9X4X3 X . . 3 <X4XI.I.I.H.H.H.C.Z $ . . . . ; 8 8 7 7 7 7 7 9 9 0 q w w w y ) ( ( ( 5.8.8.8.8.8.8.0.0.9.9.q.t.t.t.t.t.u.u.y.y.y.g.g.g.k.k.k.k.k.j.j.j./ % % % % % c ..@.@.@.@.T.+X+X+X).&.&.@.@.@.^ 5 $ $ - - : 0.j.j.j.j.j.j.k.k.g.g.g.g.g.y.y.y.u.t.t.t.q.q.q.9.9.0.8.8.8.8.8.5.5.( ( ( ) w w w w q q 9 9 7 7 7 8 8 8 8 ; . . . . $ r / _ ` ` X.d.d.N.N.o . . O $ #X].                                                                      ",
"                                                                                    9XC.X X X X C 4X4XL.I.I.I.I.H.H.C.& X . . ; 8 8 8 7 7 7 7 9 9 q q w w w w R ) ( ( 8.8.8.8.8.8.8.0.0.9.9.q.q.t.t.t.t.u.y.y.y.y.g.g.g.k.j.k.k.k.j.j.k.8 - - - , F @.@.@._.=X>X>X%X|./.&X>X>X=X&.......b - - - $ 9 j.j.j.j.j.j.k.k.k.g.g.g.g.y.y.y.u.t.t.t.q.q.q.9.9.9.8.8.8.8.8.8.5.5.( ) y w w w w q q q 9 7 7 7 8 8 8 8 ; . . . < / ' _ _ _ ` d.m.N.N.2 . . . . ~ $X                                                                        ",
"                                                                                    9X5X& X . . # h K.<X4X5X5X<XL.I.H.K $ X X $ 8 8 7 7 7 7 7 9 9 q q w w w e u / ( ( 8.8.8.8.8.8.8.0.0.9.9.q.q.t.t.t.u.u.u.y.y.y.g.g.g.k.j.j.j.j.j.j.0.: $ - , ~ @.@.#.*X>X/.H x k 3 3 k n J Q.=X+X@.....b % $ $ ; u.j.j.j.j.j.j.j.k.g.g.g.g.y.y.u.u.t.t.t.q.q.9.9.9.9.0.8.8.8.8.8.5.5.) R u w w w w q q q 9 7 7 7 7 8 8 5 @ . . ; i ' _ d.n.M.M.N.N.m.8 o . . . % &.#X                                                                        ",
"                                                                                    9X9XC.$ . . . . # h C.Z.V.L.4XL.I.G.3 X . @ 8 8 7 7 7 7 7 9 9 q q w w w w u u ) ( 5.8.8.8.8.8.8.0.9.9.9.q.q.q.t.t.t.u.u.y.y.g.g.g.g.k.j.j.j.j.j.j.7 $ $ - ~ @.@.#.>X-XA * - - - - - $ $ $ % A @X+X&.@...z $ $ $ / j.j.j.j.j.j.j.j.g.g.g.g.y.y.u.u.t.t.t.q.q.9.9.9.0.0.8.8.8.8.8.5.5./ u u w w w w q q 9 9 7 7 7 7 8 7 > X . . 7 ' ' s.N.y.0.0.) I ; X X . X X ~ $X#X                                                                        ",
"                                                                                      9X0XC.+ . . . . . . . O O L 5XP.H.K + . X > 8 7 7 7 7 7 9 9 q q w w w e u u u ' ( 5.8.8.8.8.8.0.0.q.q.q.q.q.t.t.t.u.u.y.y.g.g.g.g.j.j.j.j.j.j.q.$ $ $ c @.@.~.>XH.% @ $ $ $ $ $ $ $ $ $ $ + & !.,X&...^ 5 $ $ ; 0.j.j.j.j.j.j.k.g.g.g.f.u.u.u.u.u.u.q.q.q.q.q.0.8.8.8.8.8.8.5.5./ y u u w w w w q q 9 9 9 7 7 7 7 7 > . . X ' ' d.N.9 . O . . . . . . . $ M $X$X                                                                          ",
"                                                                                        9X4XC.. . . . . . . . . # 2X2XH.B.& . . > 8 7 7 7 7 9 9 q q w w w e e u u y u ' 5.8.8.8.8.8.0.0.q.q.q.q.q.t.u.u.u.u.u.u.f.g.g.g.h.j.j.j.j.h.w + + - ..@.&.>XQ.& @ @ @ $ $ $ $ $ $ $ $ $ $ $ % T.$X@...~ $ + + w j.j.j.j.j.h.j.k.g.g.f.u.u.u.u.u.u.q.q.q.9.0.0.0.8.8.8.8.8.5.' u y u u u w w w q q 9 9 9 7 7 7 7 7 < X . ; ' _ s.y.o . . . . . . . . + D $X$X                                                                            ",
"                                                                                          9X9XV.3 O . . . . . . X I.2XH.B.& O . < 8 7 7 7 7 7 9 q q w w w e e u u y y a ' 5.8.8.8.8.0.0.0.q.q.q.q.u.u.u.u.u.u.u.f.g.g.h.h.h.j.j.j.7.; + $ c ....>X^.* $ $ @ @ @ 4 E } } E , @ @ $ $ $ , $X;.....5 + + ; 7.j.j.j.j.j.h.h.h.f.f.u.u.u.u.u.u.q.q.q.q.0.0.0.0.0.8.8.5.' a y y u u u e w w q q 9 9 9 7 7 7 8 8 ; . . < ' ` n.0.. . . . . . . X , %.$X$X                                                                              ",
"                                                                                            9X6XrXZ.h 3 $ . . . X V.2XH.B.& O . < 8 7 7 7 7 9 9 q q w w w e e u u y s a a ' 5.8.8.8.0.0.0.q.q.q.q.u.u.u.u.u.u.u.f.f.h.h.h.h.j.j.j.0 + + - ^ ..#.>Xn $ $ $ @ : W aXgXgXgXgX}.E : $ $ $ $ M $X@.^ Q $ + @ 0 j.j.j.h.h.h.h.h.f.f.u.u.u.u.u.u.q.q.q.q.0.0.0.0.0.8.5.' a a y y u u u e w w w q 9 9 9 7 7 7 7 8 ; . . > _ ` n.8.. . . . $ * h J :.$X$X                                                                                ",
"                                                                                                6X8X6X4XH $ . X X V.2XH.B.& . . < 8 8 7 7 7 9 q q q w w w e e u u y u a a a / 5.8.8.0.0.0.0.q.q.q.u.u.u.u.u.u.u.f.f.h.h.h.h.j.j.0.; + . 5 ....&XB.$ + + $ : } gXgXgXgXgXgXgXgXS.$ $ + + $ :.:.^ ^ < . X ; g.j.j.h.h.h.h.f.f.f.u.u.u.u.u.u.u.q.q.0.0.0.0.0.8.5.d a a a y y y u e e w w q q q 9 9 7 7 7 7 8 ; . . > ' ` M.` X . . . :.<X6X>X$X                                                                                    ",
"                                                                                                  6X7X0XH.% . . X C.2XH.B.* O . ; 8 7 7 7 7 9 q q q w w w e e u y y a a a a d d _ 8.0.0.0.0.q.q.q.q.u.u.u.u.u.u.f.f.f.h.h.h.j.j.0 X . @ ~ ..#.>X3 + + + $ } gXgXgXgXgXgXgXgXgXgX} $ + + + b :...^ Q X . X u j.j.h.h.h.h.f.f.f.u.u.u.u.u.u.q.q.q.0.0.0.0.0._ d a a a a y y y u u w w w w q 9 9 9 7 7 7 7 8 ; . . > ' ` M.' X . . o >.3X6X                                                                                        ",
"                                                                                                  6X7X4XH.% . . X C.2XH.B.= . . ; 8 8 7 7 7 9 q q q w w w e e u y y a a a a d d d _ 7.0.0.0.q.q.q.q.u.u.u.u.u.u.u.f.f.h.h.h.j.g.; X X , ^ ..&XG.+ + + + : gXgXgXlXjXjXjXjXgXgXgXaX, + + + % @.&.^ ^ ; . + > f.j.h.h.h.f.f.f.u.u.u.u.u.u.u.q.q.0.0.0.0.7._ d d a a a a y y y y u e w w w q q 9 9 7 7 7 7 8 ; . . 5 ' ` M./ X . . o -.3X6X6X                                                                                      ",
"                                                                                                  qX7X<XH.% X . X C.2XH.B.3 . . ; 8 7 7 7 7 9 q q q w w w e u u y y a a a a d d d f f 6.0.0.0.q.q.q.u.u.u.u.u.u.u.u.f.h.h.h.j._ X X X b ^  .>Xn + + @ + ] gXgXjXCXKXLXPXFXVXjXgXgXE + + + + ~ ;.^ ^ 5 + + $ 7.j.h.h.h.f.f.f.u.u.u.u.u.u.u.q.q.0.0.0.6.f d d d a a a a y y y y u e e w w q q 9 9 9 7 7 7 8 1 . . 5 ' ` M.I X X . $ p.:X6X6X                                                                                      ",
"                                                                                                  qXqXU.G.% . . . L 2XB.B.3 . . ; 8 7 7 7 7 q q q q w w w e u u y y a a a a d d d f f f _ 7.0.q.q.q.u.u.u.u.u.u.u.f.f.f.f.h.g.> X X - ^ F G.J.% @ . . : aXgXkXJXLXLXLXLXLXLXFXkXgXgX@ @ @ @ , :...^ Q ; X X 2 j.h.l.f.f.f.f.u.u.u.u.u.u.u.q.q.0.7._ f f f d d a a a a y y y y e e w w w q q q 9 7 7 7 7 8 o O O 8 ' ` M.0 X X X ; i.=X6X6X                                                                                      ",
"                                                                                                  qX9XY.^.= . . . L 2XB.B.3 . . ; 8 7 7 7 7 q q q w w w w e u y y u a a a a d d d f f f g g 6.7.q.q.q.u.u.u.u.u.u.u.f.f.f.h.7.$ X $ 5 ^ $.&XH + . . . T gXlXGXLXLXLXLXLXLXLXLXGXgXgXT . . . + ~ :.^ ^ 5 X X o r.l.l.f.f.f.u.u.u.u.u.u.u.q.q.7.6.4.g g f f d d a a a a s y y y u e w w w q q q 9 7 7 7 7 8 o O O t / ` M.7 X . X ; s.$X9X6X                                                                                      ",
"                                                                                                  7X9XY./.= . . . C U.B.B.j . . @ 8 7 7 7 7 9 q q w w w w e u y y u a a a a d d d d f g g g 6.6.6.7.w.u.u.u.u.r.u.r.l.f.f.f.8 X . - F ^ !.>X& . . . . aXgXVXLXLXLXLXLXLXLXLXLXLXZXgX} $ . . . , 3...^ Q $ X X w f.f.l.l.l.u.u.u.u.u.u.w.7.6.6.6.g g f f f d d a a a a s y y u u e w w w q q 9 9 7 7 7 7 8 o . . 9 / _ M.2 X . X < s.$X0X7X                                                                                      ",
"                                                                                                  7X0XY.(.j . . . h L.B.H x . . o 7 7 7 7 7 9 q q w w w w e u y y u a a a a d d d f f f _ _ 6.6.6.6.7.w.w.u.u.u.r.r.r.l.l.7.o . + 6 ^ ..&XH.+ . . . , gXgXKXLXLXLXLXLXLXLXLXLXLXFXgXaX4 . . . + *.2.^ ^ 5 X X ; r.l.l.l.l.r.u.u.r.r.w.7.6.6.6.6.4.g f f f d d a a a a a y y u u e w w w q q 9 9 7 7 7 7 8 o . . q / _ M.; X . X > s.3.4X7X                                                                                      ",
"                                                                                                qX7X0XJ.&Xk . . . 3 L.H.H n O . . 8 7 7 7 7 9 q q w w w w e u y y y a a a a d d d f f _ _ _ 4.6.6.6.7.7.7.w.r.r.r.r.r.l.r.0 . . $ F ..$.:XZ X . . + E gXZXLXLXLXLXLXLXLXLXLXLXLXLXmXpXE . . . X b 3.^ ^ p X . . a l.l.r.r.r.r.r.r.7.7.7.6.6.6.6._ g g f f f d d a a a s y y u u e w w w q q 9 9 7 7 7 7 8 . . X r / d.M.o . . X t s.v.3X7X                                                                                      ",
"                                                                                                wX7X5XJ./.n . . . & K.H.H Z X . X 8 7 7 7 7 9 9 q q w w e e u u y y a a a a d d d d f _ _ g 4.6.6.7.7.7.7.7.w.r.r.r.r.r.f 1 . . 6 F ../.G.$ X . . : aXgXFXLXLXLXLXLXLXLXLXLXLXLXLXJXgX}.1 . . X ; 2.o.^ ^ $ . . ; w.r.r.r.r.r.r.w.7.7.7.6.6.6.4._ g g f f d d d a a a s y y u e e w w w q q q 9 7 7 7 7 > . . o i / d.j.. . . X r s.v.tX7XwX                                                                                    ",
"                                                                                                wX7X5X|./.G O . . O I.I.K K $ X . > 7 7 7 7 9 9 q q w w w e e u y y u a a a d d d f f _ g g 4.6.6.7.7.7.7.7.w.r.r.r.r.w.2 . . + F F  .>Xn X . . X E pXbXLXLXLXLXLXLXLXLXLXLXLXLXLXLXkXpXT X X X X Q ,.^ Q 5 . . . 7 r.r.r.r.r.w.w.7.7.7.6.6.6.g _ g g f f d d a a a a s y y u u e w w w q q 9 9 7 7 7 7 < . . ; / / s.r.. . . o / s.x.>X7XqX                                                                                    ",
"                                                                                                qX7X<X/.G.K . . . O L L.K K 3 X X ; 8 7 7 7 7 9 q q w w w e e u y y a a a a d d d f f f f g 4.6.6.6.7.7.7.7.w.r.r.r.r.u o . . , F F G.-X% . . . : iXgXGXLXLXLXLXLXLXLXLXLXLXLXLXLXLXCXgXaX+ X . X - -.o.Q Q $ . . o 6.r.r.r.r.w.7.7.7.7.6.6.6.6._ g g f f d d a a a a y y y u e e w w w q q 9 9 7 7 7 7 $ X . 5 / d k.' . . . o / s.i.=X7XqX                                                                                    ",
"                                                                                                qX7X2XG.G.K + . . . h 3XH H n X X X > 7 7 7 7 9 q q w w w e e u y y a a a a d d d d f _ _ _ g 6.6.6.6.7.7.7.w.r.r.r.7.1 . . $ m F  .:XK X . . X E gXkXLXLXLXLXLXLXLXLXLXLXLXLXLXLXLXPXkXgX4 X . X X Q +.! Q t . . . > 7.r.r.r.w.7.7.7.7.6.6.6.g g g _ f f d d a a a a y y y u e e w w w q q 9 9 7 7 7 5 . . X ! / _ k.7 . . . ; ' s.a.,XqXqX                                                                                    ",
"                                                                                                7X7XU././.J % . . . * 2XH.H K # X X ; 7 7 7 7 9 q q w w w e e u y y s a a a d d d d f _ _ _ _ 6.6.6.6.7.7.7.w.w.r.w.> . . . 6 F F G.Y.$ . . . X aXlXCXLXLXLXLXLXLXLXLXLXLXLXLXLXLXLXLXCXgX} $ . X X ; o.o.p p ; . X X 7 r.r.r.w.7.7.7.6.6.6.4.g g g f f f d d a a a a y y y u e w w w w q q 9 9 7 7 7 ; . . ; / ' d.y.; . . . ; _ s.a.,X6XwX                                                                                    ",
"                                                                                                7X7XU.G./.J 6 . . . + I.Y.H H j X X X > 7 7 9 9 q q w w w e e u y y y a a a a d d d f _ f f g 4.6.6.6.7.7.7.w.r.w.2 . . X - F F  .Y.A . . . X E gXkXPXLXLXLXLXLXLXLXLXLXLXLXLXLXLXLXLXKXjXgXT X . . . 5 +.! Q p X X X o 8 r.r.7.7.7.7.6.6.6.6.g g g f f f d a a a a a y y y u e w w w q q q 9 7 7 7 > X . X t / ' M.' . . . . > ' s.a.+X7XwX                                                                                    ",
"                                                                                                7X7XU.|./.J l . . . . C 3XH.H K $ . . @ 8 7 7 q q q w w w e e u u y y a a a a d d d d f f f g g 6.6.6.6.7.7.7.7.7 X . X - m F F Y.H.$ . . . ; aXgXCXLXLXLXLXLXLXLXLXLXLXLXLXLXLXLXLXLXLXBXgX} @ . . . ; ^ o.Q Q 5 $ X X 1 q 7.7.7.7.6.6.6.6.g g g f f f d d d a a a a y y u u e w w w q q q 9 7 7 > o . . ; ! ' 7.M.8 X . . o t ' s.a.+X7XwX                                                                                    ",
"                                                                                                6X7XU.G./.J b $ . . X # 1XJ.H K j . . . ; 8 7 9 q q q w w w e u u u y a a a a d d d d f f f _ g 4.6.6.6.6.6._ 8 X . . $ V F F H.U.h . . . . W gXjXJXLXLXLXLXLXLXLXLXLXLXLXLXLXLXLXLXLXLXFXgXaX4 . . . . < +...! Q 5 X X X X 8 6.7.6.6.6.6.6.g g f f f f d d d a a a s y y u e e w w w q q q 9 7 8 1 . . X t / ' n.0.; X . . ; q ' s.a.+X7XwX                                                                                    ",
"                                                                                                6X7XU.G.G.J b k X X X X K 1XH.K K $ . . . ; 8 q q q q w w w e e u y y u a a a a d d d f f f _ g 4.6.6.6._ u o . . . $ V F F H.tXZ + . . . : gXgXCXLXLXLXLXLXLXLXLXLXLXLXLXLXLXLXLXLXLXLXLXmXpXS.. . . . . p +.^ ! ! < X X . X ; u g 6.6.6.6.g g f f f d d d a a a a s y y u e e w w w q q q 9 2 o . . . < / / d.M.> X . . . 8 r _ s.a.oX7X7X                                                                                    ",
"                                                                                                8X7X<XG.G.J b b $ X X X & I.U.K K n $ . . . $ 8 q q w w w w e e u y y a a a a a d d f f _ _ _ _ 4.6._ u > o . . . $ V F F  .tXH.+ . . . @ } gXgXPXLXLXLXLXLXLXLXLXLXLXLXLXLXLXLXLXLXLXLXLXGXgXpXT . . . . $ ' +.! ! Q 5 X . . . o < a 6.6.4.g g f f f d d d a a a a s y y u e e w w w w q 9 > o . . . @ r / ' M.0.o X . X $ I I _ s.i.=X7XqX                                                                                    ",
"                                                                                                8X7X<XJ.J.H.m m k X X X X j U.I.K S n $ . X X X ; > 7 q w w e e u y y s a a a a d d d f f _ _ d y 8 ; . . . . . - V F F  .>XH.$ . . . . W fXgXCXLXLXLXLXLXLXLXLXLXLXLXLXLXLXLXLXLXLXLXLXLXLXZXpXaX, . . . + $ o.+.^ Q p 5 1 . . . . X ; 7 y d _ f f d d d a a a a s y y y e e w w w w 7 > ; . . . . ; q ! / s.y.; X . X X t I ! X.s.i.>X7XqX                                                                                    ",
"                                                                                                6X7X5XJ.|.R.N m m $ X X . + C 2XH.K S n = + X X X X $ ; < > > > 2 8 8 8 8 8 8 8 8 8 7 7 8 8 > ; ; X X X . . $ = V F S H.-XG.& X . . . , aXgXjXPXLXLXLXLXLXLXLXLXLXLXLXLXLXLXLXLXLXLXLXLXLXLXFXjXpXS.; . . X X < o.+.! p p 5 < X . . . . X 1 ; > 2 8 8 8 8 8 8 8 8 8 8 8 8 > > > > < ; $ X . . . X < q i s d.k.8 X . . X ; I I ! d.s.x.>X7XwX                                                                                    ",
"                                                                                                7X7X4XJ.|.^.D m m k $ . . . . A 3XH.K K S V - X . . . . . . . . . . X . . . . . . . . . . . . . . . X X $ 6 V F F S G.3XB.& X . . . ; aXgXgXFXLXLXLXLXLXLXLXLXLXLXLXLXLXLXLXLXLXLXLXLXLXLXLXLXCXgXgX} ; X . X X ; / +.' p p p t < 1 X . . . . . . . . . . . . . . . . . . . . . . . . . . X X ; 9 ! ! i d.k.9 . . . . 1 P I I / a.s.c.3X7X                                                                                      ",
"                                                                                                wX7X0XJ.|./.G m m m , . . . . . C 3XY.H K K S V = $ . O . . . . . . . . . . . . . . . . . . X X $ - 6 V S F S S  .U.U.h + . . . . : S.gXgXVXLXLXbXiXS.kXPXLXLXLXLXLXLXLXLXLXLXLXLXKXdXS.iXCXLXLXBXgXgX} ; X . . . . p +.+.! p p Q Q 5 < ; + X . . . . . . . . . . . . . . . . . . . . X ; 5 q ! / / ' u.j.8 . . . . o 5 I I I ' s.s.3.0X7X                                                                                      ",
"                                                                                                  7X9XP.|./.J m m m c % . . . . + Z P.U.H.K S S S n k k j 6 = = = = = = = = = = = = = = = 6 6 V V S F F F S H G.U.H.3 . . . . . : } gXgXmXPXLXCXY l l B iXGXLXLXLXLXLXLXLXLXLXLXCXS.l z z } IXLXKXkXgXgX} $ . . . . X 5 / +.o./ ! Q ! p p t 5 5 > < < < < < < < < < > < < > > > > 5 5 t r i ! / ' d.k.y.7 o . . . . < I I I I ' s.s.$X0X7X                                                                                      ",
"                                                                                                  7X9XU.|.|. .m m m b c $ . . . . + 3 H.3XJ.B.S S S S S S S S S S S S S S S S S S S S S S S S S S S S S  .J.tXU.Z + . . . . . @ D.gXgXjXGXLXLXiXc c l k k } CXLXLXLXLXLXLXLXLXCX] z l z l l BXLXLXGXlXgXgX] @ . . . . . o p O.p.+.' ! p p p p p p p p p p p p p p p p p i i i i i i i i i i / d.s.M.0.> X . . . . ; 9 I I I ! ` s.s.,XqX7X                                                                                      ",
"                                                                                                  7X7X<X|.|.Q.m m b b b c $ X X X . X X 3 I.<X3XI.C.K K K K S S S S S S S S S S S S S S S S S K H H.Y.tXtXJ.Z $ . . . . . . , }.gXgXgXAXLXLXLXiXl l l l z c Y iXJXLXLXLXLXGXdXB c l z l l l bXLXLXLXCXlXgXpXS.; . . . X . X o t ' +.p.+.o.! i i i p p p i i i i i i i i i i i i i s / / _ r.M.k.d.> o X X . . . ; P I I I I ! d.s.a.>XqXqX                                                                                      ",
"                                                                                                  7X7X4X|.|./.m m b b b b c , . X X . . . + * L J.3X3X3X2XU.U.U.U.U.U.U.U.U.U.U.U.U.U.U.U.U.1X3X3XtXG.Z 3 $ X X . . . . . z aXgXgXgXZXLXLXLXLXAXz k z l l z l l E dXCXCXiXY l l l l l l l ] IXLXLXLXLXZXgXpXpXaX< . . . . X X + $ < t ' p.p.p.p.p.p.p.p.p.p.p.p.p.a.a.a.a.a.a.s.s.s.k.k.k.d.w ; o X X X X . . < q I I I I I / a.s.v.tX7XwX                                                                                      ",
"                                                                                                    7X9XJ.|./.G b b b m m m { ] $ X . . . . . . . & 3 n Z K K K K K K K K K K K K K K K A Z n j & # X X X X X X X X . , } fXfXfXgXZXLXLXLXLXLXLXdXB z c c c l z l l l l l l l l l l l l B VXLXLXLXLXLXPXZXpXpXpXpX| : X + X . . X X X X o ; > t t q r r r r r r r e e e e e e e e q 8 > o . . . . X X . . < | / I I I I I I _ s.s.$X0X7X                                                                                        ",
"                                                                                                    7X7XU.J./.H.m m b m m m D fXD.4 @ . + + . . . X X X + + # # # + # # + + + + X X . . . . X . . . . X X . X X @ , E aXfXfXfXgXZXPXLXLXLXLXLXLXKXdXY c c c l l l l l c l l l l l l c E bXLXLXLXLXLXLXLXPXZXgXpXpXpXaXE < X + . X X X . . . . . . . X X X X X X X X X X X X X X X X X . . . . . . . . @ T e.sXI I I I I I I d.s.s.=X9X7X                                                                                        ",
"                                                                                                    7X7X<XJ.G.G.D m m m m m M '.fX.X{ , . . . @ X X X X X X X X X X . X X X X X X X . . . . . . . . . X X X X ; W aXgXgXfXfXgXZXLXLXLXLXLXLXLXLXLXPXBX] c z z l l l l l l l l l l l } ZXLXLXLXLXLXLXLXLXLXPXZXpXpXpXpXpXaXT : X X X X . . . . . . . . . X X X . . . X X . . X X X X . X X . . . . . < ) sXsXe.I I I I I I I a.s.s.3X7XqX                                                                                        ",
"                                                                                                      8X0XY././.J m m m m m m { .X.X.X.X'.l : @ + + X X + X X . . X X X X X X X X X X . . . X . . X X @ : z } fXgXgXgXgXgXgXGXLXLXLXLXLXLXLXLXLXLXLXLXPXdXY l c c c c l c c l l E lXLXLXLXLXLXLXLXLXLXLXLXLXLXSXlXgXgXgXpXpXgX| T : $ X . . . X X X . X X X X . X X X X X . . X X X X X X X @ ; 8 v.sXsXsXsX' I I I I I I ' s.s.z.9X7X                                                                                          ",
"                                                                                                      7X7X<XJ./.^.D m N m m m m '..X.X.X.X.X.XD.} Y z , , : : : : : : : : : : : : : : : : : , 4 v E } S.aXfXfXfXgXfXgXjXZXJXLXLXLXLXLXLXLXLXLXLXLXLXLXLXLXAXdX] c c c l l v ] dXFXLXLXLXLXLXLXLXLXLXLXLXLXLXLXLXFXZXlXgXpXpXpXpXpXaXaX| E T > < : : : ; : : ; ; : : : : ; : : : : < < T T | e.sXsXsXsXsXsXe.U I I I I I ! d.s.a.+X7X7X                                                                                          ",
"                                                                                                      6X7X4XJ././.J D m m m m m G .X.X.X.XfXfXfXfXfXfX.X}.'.D.D.D.D.'.'.'.'.D.D.'.D.D.D.}.}.aXfXfXfXfXfXfXfXfXfXfXgXjXGXLXLXLXLXLXLXLXLXLXLXLXLXLXLXLXLXLXLXLXCXB c l l c ] VXLXLXLXLXLXLXLXLXLXLXLXLXLXLXLXLXLXLXLXUXkXpXpXpXpXpXpXpXpXpXpXpXaXaXv.e.e.e.e.e.e.e.e.e.e.e.e.e.e.v.aXsXsXsXsXsXsXsXsXsXsXsX' I I I I I ! ' s.s.z.3X7X7X                                                                                          ",
"                                                                                                        7X6X<X/./.^.G m m m m m m hXnXhXfXfXfXfXfXfXfXfXfXfX.XfXfXfXfXfXfXfXfXfXfXfXfXfXfXfXfXfXfXfXfXfXfXfXfXgXjXGXLXLXLXLXLXLXLXLXLXLXLXLXLXLXLXLXLXLXLXLXLXLX} l l l l dXLXLXLXLXLXLXLXLXLXLXLXLXLXLXLXLXLXLXLXLXLXLXFXkXgXpXpXpXpXpXpXpXpXpXpXpXpXpXpXpXsXpXpXpXpXpXsXsXsXsXsXsXsXsXsXsXsXsXsXsXsXkXlXI I I U I ! ! a.s.s.+X6X8X                                                                                            ",
"                                                                                                        8X7X0XJ././.J m m m b m m ] AXJXMXhXfXfXfXfX.XfXfXfXfXfXfXfXfXfXfXfXfXfXfXfXfXfXfXfXfXfXfXfXfXfXfXhXZXGXLXLXLXLXLXLXLXLXLXLXLXLXLXLXLXLXLXLXLXLXLXLXLXLXD.l z z z lXLXLXLXLXLXLXLXLXLXLXLXLXLXLXLXLXLXLXLXLXLXLXLXLXFXZXlXpXpXpXpXpXpXpXpXpXpXpXpXpXpXpXpXpXpXpXsXsXsXsXsXsXsXsXsXsXsXsXsXZXFXFXR I I I I I ! ` s.s.z.3X7X6X                                                                                            ",
"                                                                                                          7X7X2X|.|.^.D m m m m N N aXLXLXPXGXVXMXhXhXfXfXfXfXfXfXfXfXfXfXfXfXfXfXfXfXfXfXfXfXhXjXnXmXCXJXLXLXLXLXLXLXLXLXLXLXLXLXLXLXLXLXLXLXLXLXLXLXLXLXLXLXLXD.z l l c jXLXLXLXLXLXLXLXLXLXLXLXLXLXLXLXLXLXLXLXLXLXLXLXLXLXLXLXKXCXZXkXlXpXpXpXpXpXpXpXpXpXpXpXpXpXpXpXpXsXsXsXsXsXsXzXBXCXFXLXLXPXdXI I I I I U ' a.s.s.=X9X7X                                                                                              ",
"                                                                                                          7X7X0XY.|./.J m m m m m N W bXLXLXLXLXPXFXGXSXAXDXDXDXDXDXDXDXCXCXCXCXCXCXCXDXDXAXSXGXFXPXLXLXLXLXLXLXLXLXLXLXLXLXLXLXLXLXLXLXLXLXLXLXLXLXLXLXLXLXLXLXD.c c c c lXLXLXLXLXLXLXLXLXLXLXLXLXLXLXLXLXLXLXLXLXLXLXLXLXLXLXLXLXLXPXPXFXFXIXUXUXCXCXCXCXCXCXCXCXCXCXCXCXUXUXUXUXIXFXHXPXLXLXLXLXBXR I I I I U ! d.s.s.v.4X7XqX                                                                                              ",
"                                                                                                            7X7X5X|././.G m m M M M M ] KXLXLXLXLXLXLXLXLXLXLXLXLXLXLXLXLXLXLXLXLXLXLXLXLXLXLXLXLXLXLXLXLXLXLXLXLXLXLXLXLXLXLXLXLXLXLXLXLXLXLXLXLXLXLXLXLXLXLXLX} c l c c dXLXLXLXLXLXLXLXLXLXLXLXLXLXLXLXLXLXLXLXLXLXLXLXLXLXLXLXLXLXLXLXLXLXLXLXLXLXLXLXLXLXLXLXLXLXLXLXLXLXLXLXLXLXLXLXLXLXLXLXIX| I I I I I I ` s.s.s.,XqXqX                                                                                                ",
"                                                                                                            7X7X7XU.|./.^.G N M M M M D D.KXLXLXLXLXLXLXLXLXLXLXLXLXLXLXLXLXLXLXLXLXLXLXLXLXLXLXLXLXLXLXLXLXLXLXLXLXLXLXLXLXPXVXdXkXKXLXLXLXLXLXLXLXLXLXLXLXLXLXE l l c V iXPXLXLXLXLXLXLXLXLXLXLXLXLXFXlXiXVXLXLXLXLXLXLXLXLXLXLXLXLXLXLXLXLXLXLXLXLXLXLXLXLXLXLXLXLXLXLXLXLXLXLXLXLXLXLXLXLXLXPXe.I I I I I I / s.s.s.$X9X7XqX                                                                                                ",
"                                                                                                              7X7X4XY././.R.D D N M M D M lXLXLXLXLXLXLXLXLXLXLXLXLXLXLXLXLXLXLXLXLXLXLXLXLXLXLXLXLXLXLXLXLXLXLXLXLXLXLXLXLXBXv l v S.LXLXLXLXLXLXLXLXLXLXLXLXPXv l l l c ] IXLXLXLXLXLXLXLXLXLXLXLXPXS.l z B VXLXLXLXLXLXLXLXLXLXLXLXLXLXLXLXLXLXLXLXLXLXLXLXLXLXLXLXLXLXLXLXLXLXLXLXLXLXLXLXPXdXI I I I I ! / i.s.s.v.4X7X7X                                                                                                  ",
"                                                                                                                7X7X4X|./.(.R.D D D D N m Y dXLXLXLXLXLXLXLXLXLXLXLXLXLXLXLXLXLXLXLXLXLXLXLXLXLXLXLXLXLXLXLXLXLXLXLXLXLXLXLXD.l c c c lXLXLXLXLXLXLXLXLXLXLXPXdXl c l c c l dXLXLXLXLXLXLXLXLXLXLXLXiXB c z l dXLXLXLXLXLXLXLXLXLXLXLXLXLXLXLXLXLXLXLXLXLXLXLXLXLXLXLXLXLXLXLXLXLXLXLXLXLXLXPXdXU I I I I I ! i.s.s.v.>X7X7X                                                                                                    ",
"                                                                                                                7X7X6X2X|.|.(.E.D D D M m m Y kXPXLXLXLXLXLXLXLXLXLXLXLXLXLXLXLXLXLXLXLXLXLXLXLXLXLXLXLXLXLXLXLXLXLXLXLXLXLXiXl c c c Y bXPXLXLXLXLXLXLXLXPXkXW c c c c l c W jXPXLXLXLXLXLXLXLXPXbXY c c z l lXLXLXLXLXLXLXLXLXLXLXLXLXLXLXLXLXLXLXLXLXLXLXLXLXLXLXLXLXLXLXLXLXLXLXLXLXLXKXlXU P I I I I ! d.s.s.x.=X9X7X                                                                                                      ",
"                                                                                                                  8X7X7XU.|./.(.R.D m m M m m M dXLXLXLXLXLXLXLXLXLXLXLXLXLXLXLXLXLXLXLXLXLXLXLXLXLXLXLXLXLXLXLXLXLXLXLXLXLXAXY c c c c B S.GXLXLXLXLXLXAXD.B l c l c l l c l v S.AXLXLXLXLXLXAXD.B c c c z v FXLXLXLXLXLXLXLXLXLXLXLXLXLXLXLXLXLXLXLXLXLXLXLXLXLXLXLXLXLXLXLXLXLXLXLXLXPXdXU P P P I I ! d.s.s.s.=X9X7XwX                                                                                                      ",
"                                                                                                                    8X7X9X2X|././.H.D m m N N M M dXJXLXLXLXLXLXLXLXLXLXLXLXLXLXLXLXLXLXLXLXLXLXLXLXLXLXLXLXLXLXLXLXLXLXLXLXLXbXv c c c c z l E S.S.S.E l l l l c c c c c c l c l l ] D.S.} E z l l c c c B BXLXLXLXLXLXLXLXLXLXLXLXLXLXLXLXLXLXLXLXLXLXLXLXLXLXLXLXLXLXLXLXLXLXLXLXLXKXe.U I I I I I ! d.s.s.x.=X9X7X7X                                                                                                        ",
"                                                                                                                      7X7X0X2X/././.H.G m m M D D W aXAXLXLXLXLXLXLXLXLXLXLXLXLXLXLXLXLXLXLXLXLXLXLXLXLXLXLXLXLXLXLXLXLXLXLXLXPXiXB c c c l l l c v v c c c l l c Y dXS.B c c c c c c l l l l l l c c c B dXPXLXLXLXLXLXLXLXLXLXLXLXLXLXLXLXLXLXLXLXLXLXLXLXLXLXLXLXLXLXLXLXLXLXLXLXIXiXU U U I I I / d.s.s.x.=X0X7X7X                                                                                                          ",
"                                                                                                                        8X7X6XU./././.R.G D D D D D D D.IXLXLXLXLXLXLXLXLXLXLXLXLXLXLXLXLXLXLXLXLXLXLXLXLXLXLXLXLXLXLXLXLXLXLXLXKXdXv z c c c c c c c c c c l c Y lXPXKXiXl c c c c c l c c c c c c c Y dXLXLXLXLXLXLXLXLXLXLXLXLXLXLXLXLXLXLXLXLXLXLXLXLXLXLXLXLXLXLXLXLXLXLXLXLXCXiXU U U U U I ' p.s.s.x.+X9X7X7X                                                                                                            ",
"                                                                                                                          8X8X6X<XG././.(.$.D D D D D D W bXPXLXLXLXLXLXLXLXLXLXLXLXLXLXLXLXLXLXLXLXLXLXLXLXLXLXLXLXLXLXLXLXLXLXLXLXZXE v c v v c l l c c c B ] AXLXLXLXLXbX] v v c c l l l l c c v } VXLXLXLXLXLXLXLXLXLXLXLXLXLXLXLXLXLXLXLXLXLXLXLXLXLXLXLXLXLXLXLXLXLXLXLXPXBXU P P U ! ! ! ` a.s.s.x.>X6X7X7X                                                                                                              ",
"                                                                                                                            8X8X7X5XJ./.(.(.!.G D D M M N M aXFXLXLXLXLXLXLXLXLXLXLXLXLXLXLXLXLXLXLXLXLXLXLXLXLXLXLXLXLXLXLXLXLXLXLXLXFXlX] l v c l l l z D.bXJXLXLXLXLXLXLXFXbX] l c l l l l l } bXKXLXLXLXLXLXLXLXLXLXLXLXLXLXLXLXLXLXLXLXLXLXLXLXLXLXLXLXLXLXLXLXLXLXLXLXPXiXU I P U ! ! / b.b.a.s.z.>X6X8X7X                                                                                                                ",
"                                                                                                                              8X8X7X4XU./.(./.(.$.D N M N m m ] jXLXLXLXLXLXLXLXLXLXLXLXLXLXLXLXLXLXLXLXLXLXLXLXLXLXLXLXLXLXLXLXLXLXLXLXLXLXFXZXkXkXbXCXKXLXLXLXLXLXLXLXLXLXLXLXLXFXBXkXjXbXVXJXLXLXLXLXLXLXLXLXLXLXLXLXLXLXLXLXLXLXLXLXLXLXLXLXLXLXLXLXLXLXLXLXLXLXLXLXPXkX| P P I I I ! O.b.b.b.x.$X3X7X7X7X                                                                                                                  ",
"                                                                                                                                8X7X7X0X2X&X(.(.(.E.J D N m m m ~ dXAXLXLXLXLXLXLXLXLXLXLXLXLXLXLXLXLXLXLXLXLXLXLXLXLXLXLXLXLXLXLXLXLXLXLXLXLXLXLXLXLXLXLXLXLXLXLXLXLXLXLXLXLXLXLXLXLXLXLXLXLXLXLXLXLXLXLXLXLXLXLXLXLXLXLXLXLXLXLXLXLXLXLXLXLXLXLXLXLXLXLXLXLXLXLXLXLXCXiXE P P P P ! ' p.b.b.b.v.=X5XqX7X7X                                                                                                                    ",
"                                                                                                                                  7X7X7X7X5XY.(.(.(.^. .D m m m m M } bXLXLXLXLXLXLXLXLXLXLXLXLXLXLXLXLXLXLXLXLXLXLXLXLXLXLXLXLXLXLXLXLXLXLXLXLXLXLXLXLXLXLXLXLXLXLXLXLXLXLXLXLXLXLXLXLXLXLXLXLXLXLXLXLXLXLXLXLXLXLXLXLXLXLXLXLXLXLXLXLXLXLXLXLXLXLXLXLXLXLXLXLXLXPXlX] P P P P P ! ` i.b.b.b.3.>X9X7X7X                                                                                                                        ",
"                                                                                                                                      7X7X7X9XU.|././.(.(.E.G D D D D D } ZXPXLXLXLXLXLXLXLXLXLXLXLXLXLXLXLXLXLXLXLXLXLXLXLXLXLXLXLXLXLXLXLXLXLXLXLXLXLXLXLXLXLXLXLXLXLXLXLXLXLXLXLXLXLXLXLXLXLXLXLXLXLXLXLXLXLXLXLXLXLXLXLXLXLXLXLXLXLXLXLXLXLXLXLXLXLXLXLXLXKXkX] P P P P I ! O.x.i.i.i.c.=X0X7X7X7X                                                                                                                          ",
"                                                                                                                                          8X7X6X4XU.J././.(.(.E.J G D D D ~ D.jXGXLXLXLXLXLXLXLXLXLXLXLXLXLXLXLXLXLXLXLXLXLXLXLXLXLXLXLXLXLXLXLXLXLXLXLXLXLXLXLXLXLXLXLXLXLXLXLXLXLXLXLXLXLXLXLXLXLXLXLXLXLXLXLXLXLXLXLXLXLXLXLXLXLXLXLXLXLXLXLXLXLXLXLXLXIXkX| P P P P ! ' O.x.x.x.v.,.=X3X9X7X7X                                                                                                                              ",
"                                                                                                                                            7X7X7X6X4XY./.(.(.(.(.!.[ G D D D D } jXJXLXLXLXLXLXLXLXLXLXLXLXLXLXLXLXLXLXLXLXLXLXLXLXLXLXLXLXLXLXLXLXLXLXLXLXLXLXLXLXLXLXLXLXLXLXLXLXLXLXLXLXLXLXLXLXLXLXLXLXLXLXLXLXLXLXLXLXLXLXLXLXLXLXLXLXLXLXLXLXLXKXlX} P P P P ! ' O.x.x.x.x.z.#X3X9X7X7X7X                                                                                                                                ",
"                                                                                                                                                7X7X7X7X4XU.|.(.(.(.(._.E.G D D m m M dXCXPXLXLXLXLXLXLXLXLXLXLXLXLXLXLXLXLXLXLXLXLXLXLXLXLXLXLXLXLXLXLXLXLXLXLXLXLXLXLXLXLXLXLXLXLXLXLXLXLXLXLXLXLXLXLXLXLXLXLXLXLXLXLXLXLXLXLXLXLXLXLXLXLXLXLXPXCXaXW P P Q ! ^ O.x.x.x.v.x.c.#X3X9X7X7X7X                                                                                                                                    ",
"                                                                                                                                                    8X7X7X6X4XU.|.(.(.(.(.(.!.$.G D D m W D.BXPXLXLXLXLXLXLXLXLXLXLXLXLXLXLXLXLXLXLXLXLXLXLXLXLXLXLXLXLXLXLXLXLXLXLXLXLXLXLXLXLXLXLXLXLXLXLXLXLXLXLXLXLXLXLXLXLXLXLXLXLXLXLXLXLXLXLXLXLXLXLXPXlX} W ~ Q Q ^ ` c.v.v.v.v.x.=.XX3X9X7X7X7X                                                                                                                                        ",
"                                                                                                                                                        7X7X7X7X0X2XY./.(.(.(.(.(.!.$.[ G D M W S.bXFXLXLXLXLXLXLXLXLXLXLXLXLXLXLXLXLXLXLXLXLXLXLXLXLXLXLXLXLXLXLXLXLXLXLXLXLXLXLXLXLXLXLXLXLXLXLXLXLXLXLXLXLXLXLXLXLXLXLXLXLXLXLXLXLXIXkXS.Y P P Q ^ *.c.v.v.v.v.v.c.$X:X4X6X7X7X7X                                                                                                                                            ",
"                                                                                                                                                            7X7X7X6X0X5XU.&X/.(._._._._.!.#.[ G D W } aXbXCXKXLXLXLXLXLXLXLXLXLXLXLXLXLXLXLXLXLXLXLXLXLXLXLXLXLXLXLXLXLXLXLXLXLXLXLXLXLXLXLXLXLXLXLXLXLXLXLXLXLXLXLXLXLXLXLXLXJXCXbXaX| ~ ~ Q ^ ' -.-.z.v.v.v.c.].OXtX4X7X7X8X8X                                                                                                                                                ",
"                                                                                                                                                                8X8X7X7X6X4X2XY./._._._._._._._.T.$.[ D M { S.jXCXPXLXLXLXLXLXLXLXLXLXLXLXLXLXLXLXLXLXLXLXLXLXLXLXLXLXLXLXLXLXLXLXLXLXLXLXLXLXLXLXLXLXLXLXLXLXLXLXLXLXLXPXVXlXS.] Y ~ ^ ^ *.-.c.z.z.z.z.z.,.$X>X5X9X7X7X7X7X                                                                                                                                                    ",
"                                                                                                                                                                    8X7X7X7X7X7X9X5XY.&X(._.(._._._._._._.T.[ G D W D.lXVXAXKXLXLXLXLXLXLXLXLXLXLXLXLXLXLXLXLXLXLXLXLXLXLXLXLXLXLXLXLXLXLXLXLXLXLXLXLXLXLXLXLXFXCXBXdX} Y ~ ^ ^ *.,.c.c.c.c.c.c.c.=.>.[.:X4X9X7X7X7X7XwX                                                                                                                                                        ",
"                                                                                                                                                                          8X8X7X7X7X7X0X5XU.|.(._._._._._._._.~.~.W.W.$.[ { } D.dXbXAXPXLXLXLXLXLXLXLXLXLXLXLXLXLXLXLXLXLXLXLXLXLXLXLXLXLXLXLXLXLXLXKXCXkXaX} } { ^ *.*.2.1.,.c.c.c.c.c.c.c.,.:.oX>X4X9X7X7X7X7XwX                                                                                                                                                              ",
"                                                                                                                                                                                8X8X8X7X7X7X6X0X5XU.Y./._._._._._._.~.~.~.~.~.~.W.%.%.[ '.}.aXgXjXbXmXVXCXAXGXFXJXKXKXKXKXJXFXGXCXCXZXmXkXlXgXaX}.2.| *.*.2.1.>.>.>.>.,.,.=.=.,.,.,.<.$X=XtX4X9X7X8X8X8X7X7X                                                                                                                                                                    ",
"                                                                                                                                                                                      7X8X8X7X7X7X7X6X4X5X2XY.&X@X_._.~.~.~.~.~.~.~.~.~.~.~.~.~.~.{.{.}.}.}.}..XfXfXfXfXfXaXaX}.}.}.].;.:.:.:.:.1.<.>.>.>.>.>.>.,.>.>.1.<.:.[.OX=X>X3X0X9X7X7X8X8X8X8X                                                                                                                                                                          ",
"                                                                                                                                                                                              7X8X8X8X8X7X7X7X9X4X<X1X-X&X(._.~.~.~.~.~.~.).~.[.~.{.{.{.{.{.{.{.{.{.{.].:.:.:.:.:.:.;.;.;.;.<.<.<.<.<.>.>.>.<.;.].[.oX%XU.5X4X9X6X7X7X7X7X7XqX                                                                                                                                                                                  ",
"                                                                                                                                                                                                        7X8X8X8X7X8X8X8X8X7X6X0X4X5X2X2XU.-X%X*XoX_._.~.~.~.~.).~.~.~.~.{.{.{.{.{.{.{.).).).).oX*X%X:XU.3X5X4X9X9X7X7X7X7X7X7X7X7X7X                                                                                                                                                                                            ",
"                                                                                                                                                                                                                  8X8X8X8X8X8X8X7X7X7X6X9X9X0X0X0X4X4X4X5X5X3X3X3X3X3X3X3X2X3X3X3X3X5X5X4X4X4X0X9X9X9X7X7X7X7X7X7X7X7X7X7X                                                                                                                                                                                                      ",
"                                                                                                                                                                                                                            8X8X8X8X8X7X7X7X7X7X7X7X7X7X7X7X7X7X7X7X7X7X7X7X7X7X7X7X8X7X8X7X7X7X7X7X8X7X7X7X7XwX                                                                                                                                                                                                                ",
"                                                                                                                                                                                                                                                    wXwXwXwXwXwX8X6X6X8X8X8X8X8XwXwXwXwX                                                                                                                                                                                                                                        ",
"                                                                                                                                                                                                                                                                                                                                                                                                                                                                                                                                ",
"                                                                                                                                                                                                                                                                                                                                                                                                                                                                                                                                ",
"                                                                                                                                                                                                                                                                                                                                                                                                                                                                                                                                ",
"                                                                                                                                                                                                                                                                                                                                                                                                                                                                                                                                ",
"                                                                                                                                                                                                                                                                                                                                                                                                                                                                                                                                ",
"                                                                                                                                                                                                                                                                                                                                                                                                                                                                                                                                ",
"                                                                                                                                                                                                                                                                                                                                                                                                                                                                                                                                ",
"                                                                                                                                                                                                                                                                                                                                                                                                                                                                                                                                ",
"                                                                                                                                                                                                                                                                                                                                                                                                                                                                                                                                ",
"                                                                                                                                                                                                                                                                                                                                                                                                                                                                                                                                ",
"                                                                                                                                                                                                                                                                                                                                                                                                                                                                                                                                ",
"                                                                                                                                                                                                                                                                                                                                                                                                                                                                                                                                ",
"                                                                                                                                                                                                                                                                                                                                                                                                                                                                                                                                ",
"                                                                                                                                                                                                                                                                                                                                                                                                                                                                                                                                ",
"                                                                                                                                                                                                                                                                                                                                                                                                                                                                                                                                ",
"                                                                                                                                                                                                                                                                                                                                                                                                                                                                                                                                ",
"                                                                                                                                                                                                                                                                                                                                                                                                                                                                                                                                "
};
