/* XPM */
static char *_ffa7a2d8b434b4482fd1c95a47b2d44WEIrzJMhSWI0FvW8[] = {
/* columns rows colors chars-per-pixel */
"64 64 243 2 ",
"   c #131D57",
".  c #17255E",
"X  c #1C2563",
"o  c #182B63",
"O  c #17376C",
"+  c #1C3678",
"@  c #262769",
"#  c #233469",
"$  c #2D2B74",
"%  c #2C2D78",
"&  c #3B2D7B",
"*  c #342B77",
"=  c #293975",
"-  c #353579",
";  c #202B5F",
":  c #412E7E",
">  c #1D477D",
",  c #37447C",
"<  c #2A457B",
"1  c #343A8A",
"2  c #4D348C",
"3  c #463686",
"4  c #553691",
"5  c #5B3796",
"6  c #5D3997",
"7  c #573997",
"8  c #4C3692",
"9  c #643A9D",
"0  c #62379A",
"q  c #6C3BA4",
"w  c #673AA0",
"e  c #743DAB",
"r  c #7B3FB1",
"t  c #4E3EA4",
"y  c #1A5785",
"u  c #1E4A83",
"i  c #284986",
"p  c #374A88",
"a  c #354B94",
"s  c #394D97",
"d  c #285A96",
"f  c #39549A",
"g  c #29508D",
"h  c #27629B",
"j  c #346B9C",
"k  c #3B5AA4",
"l  c #1D76AE",
"z  c #3A66A8",
"x  c #2676A7",
"c  c #3B69B3",
"v  c #3A75B6",
"b  c #2B70AD",
"n  c #17618E",
"m  c #4A568D",
"M  c #494695",
"N  c #54479D",
"B  c #495D9C",
"V  c #45579A",
"C  c #4D4C8F",
"Z  c #67499D",
"A  c #57669A",
"S  c #4E679E",
"D  c #554AA1",
"F  c #485AA8",
"G  c #5759B5",
"H  c #4B4BAB",
"J  c #6946A7",
"K  c #7748AA",
"L  c #7B5CA9",
"P  c #7B45B3",
"I  c #6558B8",
"U  c #735CB0",
"Y  c #4A68A9",
"T  c #586BA5",
"R  c #4569B5",
"E  c #5866B8",
"W  c #4D76B1",
"Q  c #6676AB",
"!  c #7569BB",
"~  c #6D73BD",
"^  c #626D9D",
"/  c #2648C5",
"(  c #294BC7",
")  c #2654C9",
"_  c #265CCB",
"`  c #2650C7",
"'  c #3854C6",
"]  c #2563CE",
"[  c #256DD1",
"{  c #257CD6",
"}  c #2574D3",
"|  c #237BC9",
" . c #455AC1",
".. c #7A59C9",
"X. c #6F5DC3",
"o. c #5B76CA",
"O. c #4361CB",
"+. c #6A66C5",
"@. c #7266C5",
"#. c #7B6BD7",
"$. c #6D7BDA",
"%. c #7676DB",
"&. c #6C75C7",
"*. c #8845B8",
"=. c #885BB7",
"-. c #8D5ABC",
";. c #8558B7",
":. c #8655B3",
">. c #8359C5",
",. c #9554C2",
"<. c #945BC3",
"1. c #9C58C8",
"2. c #8A5DD7",
"3. c #915BD9",
"4. c #A358CD",
"5. c #A95BD1",
"6. c #8466DA",
"7. c #8772C1",
"8. c #A161CE",
"9. c #2C8BB7",
"0. c #3488B9",
"q. c #2180A8",
"w. c #1F87A9",
"e. c #4182BC",
"r. c #5B87B7",
"t. c #6688B8",
"y. c #7484B4",
"u. c #798ABA",
"i. c #6A94BC",
"p. c #398AC4",
"a. c #258CDB",
"s. c #2787D9",
"d. c #2494DE",
"f. c #249ADF",
"g. c #2A97DD",
"h. c #3592CE",
"j. c #26ABCA",
"k. c #29A8C8",
"l. c #3AA7DA",
"z. c #29B3D4",
"x. c #35B4DA",
"c. c #2FAACE",
"v. c #269DE0",
"b. c #3699E3",
"n. c #2AA4E1",
"m. c #25AAE4",
"M. c #2BADE4",
"N. c #25A3E2",
"B. c #32ACE1",
"V. c #3DA9E3",
"C. c #2BB3E6",
"Z. c #2BBDE9",
"A. c #26B9E8",
"S. c #3BB4E2",
"D. c #37B7E5",
"F. c #4283C3",
"G. c #478BC6",
"H. c #5785CB",
"J. c #5A8BD7",
"K. c #479AD5",
"L. c #5699DA",
"P. c #4199CD",
"I. c #6A83DE",
"U. c #638BDE",
"Y. c #6288DA",
"T. c #6E90CF",
"R. c #48A8DC",
"E. c #5AA7DA",
"W. c #5AB2DE",
"Q. c #6AA8DA",
"!. c #77A4DA",
"~. c #66B3DE",
"^. c #76B3DF",
"/. c #6DA0C9",
"(. c #5B96E1",
"). c #569AE2",
"_. c #419CE5",
"`. c #6390E2",
"'. c #4CABE4",
"]. c #46ACE6",
"[. c #51A4E4",
"{. c #56A6EB",
"}. c #44B5E5",
"|. c #43B8E6",
" X c #59B1E1",
".X c #6BB4E2",
"XX c #24C2EC",
"oX c #2BC5EC",
"OX c #3AC1E9",
"+X c #818CBC",
"@X c #8894BC",
"#X c #98A0BE",
"$X c #8789C2",
"%X c #899BC6",
"&X c #949BC6",
"*X c #8F94D5",
"=X c #99A5C8",
"-X c #89B3DB",
";X c #9AB6DF",
":X c #8BA9D0",
">X c #A6ABCD",
",X c #A7B1CF",
"<X c #ABB5D2",
"1X c #ABB8D6",
"2X c #B4BBD7",
"3X c #ABA9DB",
"4X c #96ABE3",
"5X c #8DBCE2",
"6X c #9CBAE1",
"7X c #96B9E1",
"8X c #84A8E1",
"9X c #B5AAE1",
"0X c #A7BDE2",
"qX c #B3B4E2",
"wX c #8B9EE0",
"eX c #B9C4DB",
"rX c #A8C4DB",
"tX c #A9C7E6",
"yX c #B7C7E5",
"uX c #BBD2E7",
"iX c #93C1E4",
"pX c #C2C9DE",
"aX c #D2D4DF",
"sX c #C5CBE5",
"dX c #CBD2E4",
"fX c #CDD9ED",
"gX c #C6D5EB",
"hX c #D4DAE5",
"jX c #D5DDEB",
"kX c #D5D9E5",
"lX c #DCDEF1",
"zX c #DAE2ED",
"xX c #DBE4F2",
"cX c #CFE1F1",
"vX c #E1E4EE",
"bX c #E5EAF5",
"nX c #EAEDF4",
"mX c #E7EAF5",
"MX c #EDF1F6",
"NX c #F3F6FA",
"BX c #F7F9FB",
"VX c #FEFEFF",
"CX c #F4F5F9",
/* pixels */
"/ / / / / / / / / / / / / / / / / / / / / / / / / / / / / / / / / / / / / / / / / / / / / / / / / / / / / / / / / / / / / / / / ",
"/ / / / / / / / / / / / / / / / / / / / / / / / / / / / / / / / / / / / / / / / / / / / / / / / / / / / / / / / / / / / / / / / ",
"/ / / / / / / / / / / / / / / / / / / / / / / / / / / / / / / / / / / / / / / / / / / / / / / / / / / / / / / / / / / / / / / / ",
"/ / / / / / / / / / / / / _ } s.[ _ / / / / / / / / / / / / / / / / / / / / / / / / / / / / / / _ [ s.[ ) / / / / / / / / / / / ",
"/ / / / / / / / / / / / ] oXx.l.x.XX{ / / / / / / / / / / / / / / / / / / / / / / / / / / / ( d.Z.l.h.l.M._ / / / / / / / / / / ",
"/ / / / / / / / / / / ] A.~.xXNXcX5XD.m.` / / / / / / / / / / / / / / / / / / / / / / / / _ C.R.;XxXBXfXW.M./ / / / / / / / / / ",
"/ / / / / / / / / / / s.D.xXVXVXVXNXtX}.f._ / / / / / / / / / / / / / / / / / / / / / / _ M.E.uXBXVXVXVXyXS.] / / / / / / / / / ",
"/ / / / / / / / / / / n.~.VXVXVXVXVXVXtXS.d./ / / / / / / / / / / / / / / / / / / / / ( m.K.fXVXVXVXVXVXbXE.f./ / / / / / / / / ",
"/ / / / / / / / / / ` M.iXVXVXlX<XpXVXVXyXR.{ / / / / / / / / / / / / / / / / / / / ` f.L.zXVXCXeX<XnXVXNX-XXX/ / / / / / / / / ",
"/ / / / / / / / / / _ B.tXVXBXt.z B &XMXBX5XZ.) / / / / / / / / / / / / / / / / / / { D.tXVXzX+XB c /.VXBX6XXX( / / / / / / / / ",
"/ / / / / / / / / / _ B.tXVXdXc.x.v s @XVXxXR.a./ / / / / / / / / / / / / / / / / ( n.Q.BXBXQ f v OX0.mXVX6XA.( / / / / / / / / ",
"/ / / / / / / / / / _ B.tXVX=Xx.OXS.z a ,XBX;XC.[ / / / / / / / / / / / / / / / / [ R.fXBXu.a v |.OXl.dXBX;XXX( / / / / / / / / ",
"/ / / / / / / / / / ( M.7XVX&XS.|.|.K.f B dXNXR.a./ / / / / / / / / / / / / / / / M.-XBXpXs z R.|.|.l.pXNX-XXX/ / / / / / / / / ",
"/ / / / / / / / / / / n.^.VX=XR.}.].'.F.a y.BX;Xl._ / / / / / / / / / / / / / / ] D.fXCXB a K.].'.}.P.dXnXQ.N./ / / / / / / / / ",
"/ / / / / / / / / / / g.W.VXeXK.].'.[.L.f B lXfXR.s./ / / / / / / / / / / / / / d.E.mX<Xa z [.[.'.'.F.vXxXR.s./ / / / / / / / / ",
"/ / / / / / / / / / / { S.NXvXG.[.[.).).R s &XBX^.n./ / / / / / / / / / / / / _ M.:XvXQ s H.).).[.[.R BXgXD._ / / / / / / / / / ",
"/ / / / / / / / / / / ] C.tXVXr.L.).(.(.J.k a mXtXD./ / / / / / / / / / / / / [ D.xX<Xa F J.L.).).L.u.VX5XM./ / / / / / / / / / ",
"/ / / / / / / / / / / ` N.!.BX%XJ.(.(.U.U.R a 2XfXR.[ / / / / / / / / / / / / s.R.BXy.a o.U.`.(.(.J.2XbX~.f./ / / / / / / / / / ",
"/ / / / / / / / / / / / { R.xX1XH.`.U.U.I.o.a u.jXQ.f./ / / / / / / / / / / / g.!.nXT s I.I.U.U.`.H.zXyXl.} / / / / / / / / / / ",
"/ / / / / / / / / / / / ( oX-XnXT.U.I.I.I.$.f B dX-XA./ / / / / / / / / / / ` B.6XdXs F $.$.I.I.Y.y.BXQ.n./ / / / / / / / / / / ",
"/ / / / / / / / / / / / / s.R.bX>Xo.I.$.%.%.F a 2X0XZ.` / / / / / / / / / / ] V.yX>Xa E %.%.$.I.o.pXfXS.{ / / / / / / / / / / / ",
"/ / / / / / / / / / / / / ) Z.7XhX~ %.%.%.%.+.a &XgXD._ / / / / / / / / / / { R.fXQ s @.%.%.%.$.~ MXT.N.) / / / / / / / / / / / ",
"/ / / / / / / / / / / / / / s.R.uX,X&.%.#.#.#.a y.fXl.] / / / / / / / / / / a. XjXf H #.#.#.%.&.1XyXS.[ / / / / / / / / / / / / ",
"/ / / / / / / / / / / / / / / C.^.zXE #.6.6.6.f Q fXl.[ ( _ [ { { { { [ _ / v.~.fXs G 6.6.6.#.$XxXL.m./ / / / / / / / / / / / / ",
"/ / / / / / / / / / / / / / / [ B.8XdX! 6.6.2.F Y sXK.oXOX|.R.K.K.K.K.R.|.D.oX^.sXf I 2.6.6.~ sX!.Z.) / / / / / / / / / / / / / ",
"/ / / / / / / / / / / / / / / / s.S.yX&X..2.3.G Y rXH.G.F.e.F.G.G.G.G.e.e.F.G.!.1Xf X.3.2.X.1X;X].[ / / / / / / / / / / / / / / ",
"/ / / / / / / / / / / / / / / / ) N.E.fX~ 2.3.I z t.v e./.-XtXuXgXgXuXrX-X/.v W t.k ..3.>.+XyXE.v./ / / / / / / / / / / / / / / ",
"/ / / / / / / / / / / / / / / / / ` XXL.sX&...Y R i.uXBXVXVXVXVXVXVXVXVXVXVXNXrXt.z I ..u.sXK.v.( / / / / / / / / / / / / / / / ",
"/ / / / / / / / / / / / / / / / / / ] oX!.%Xk t.gXBXVXVXVXVXVXVXVXVXVXVXVXVXVXVXBXyXY k <XT.C.] / / / / / / / / / / / / / / / / ",
"/ / / / / / / / / / / / / / / / / ( m.V.z Y 1XVXVXVXVXVXVXVXVXVXVXVXVXVXVXVXVXVXVXVXmX=Xf E ].a./ / / / / / / / / / / / / / / / ",
"/ / / / / / / / / / / / / / / / ` a.V.R T eXBXVXVXVXVXVXVXVXVXVXVXVXVXVXVXVXVXVXVXVXVXNX=XB E R.s./ / / / / / / / / / / / / / / ",
"/ / / / / / / / / / / / / / / / { D.R V dXVXVXVXVXVXVXVXVXVXVXVXVXVXVXVXVXVXVXVXVXVXVXVXBX,XV E V._ / / / / / / / / / / / / / / ",
"/ / / / / / / / / / / / / / / } D.R B kXVXVXVXVXVXVXVXVXVXVXVXVXVXVXVXVXVXVXVXVXVXVXVXVXVXVX<XB E D._ / / / / / / / / / / / / / ",
"/ / / / / / / / / / / / / / / M.h.f <XVXVXVXVXVXVXVXVXVXVXVXVXVXVXVXVXVXVXVXVXVXVXVXVXVXVXVXBX@XV Y.g./ / / / / / / / / / / / / ",
"/ / / / / / / / / / / / / / [ D.z Q VXVXVXVXVXVXVXVXVXVXVXVXVXVXVXVXVXVXVXVXVXVXVXVXVXVXVXVXVXlXT G S._ / / / / / / / / / / / / ",
"/ / / / / / / / / / / _ | a.z.v s #XaXaXhXhXhXkXjXjXjXzXxXNXVXVXVXVXVXVXMXzXzXjXjXkXhXhXhXaXaXaX@Xp E h. .' ( / / / / / / / / / ",
"/ / / / / / / / / / ] l O . o . . . # # # # = < i g h j j r.eXVXVXVXBXrXW j d g i < = # # # # ; .   . X X #  .( / / / / / / / / ",
"/ / / / / / / / / / s.> w.j.j.j.j.j.j.j.j.j.j.z.z.z.x.x.x.c.x i.:X%Xr.x K.K.L.H.H.H.o.&.&.@.! ! ! >.>.-.-.Z = ' / / / / / / / / ",
"/ / / / / / / / / / l y j.O O O O = i p p s V V B F F Y z 0.c.9.9.0.0.P.z V D N N M M 8 3 3 3 & % @ @ @ & -.X  ./ / / / / / / / ",
"/ / / / / / / / / / l y k.      @ 3 4 L L =.=.-.<.<.1.8.U p h 0.p.p.v d p <.8.8.<.<.=.=.:.L Z 4 3       @ ;.X R / / / / / / / / ",
"/ / / / / / / / / / l y k.u O   & 2 4 Z L =.=.-.<.1.4.5.5.M = k R R a + Z 5.5.4.1.<.-.=.=.L 6 4 2 &   $ 2 ;.X  ./ / / / / / / / ",
"/ / / / / / / / / / | y y q.9.O & 2 4 6 K :.=.-.<.1.4.5.,.1 k c d f c k 3 4.5.4.1.<.-.=.:.J 5 4 2 & $ J J 3 i ' / / / / / / / / ",
"/ / / / / / / / / / ) | n . 9.> & 2 4 5 9 K =.-.,.1.4.5.9 s c # A m = R - *.5.4.1.<.-.;.K 9 5 4 2 * 8 2 o g O.( / / / / / / / / ",
"/ / / / / / / / / / / / v.i x > & 2 4 6 9 q P -.,.1.4.4.* k > y.yXqXA = H 3 5.4.1.-.:.K q 9 5 4 2 $ 7 3 k d./ / / / / / / / / / ",
"/ / / / / / / / / / / ) m.g x > * 2 4 6 w q e *.*.,.1.K 1 z # sXVXBX=XX G @ *.1.,.*.P e w 9 6 4 2 @ 7 3 F b./ / / / / / / / / / ",
"/ / / / / / / / / / / _ C.d y d $ 2 4 6 9 q e P *.*.*.@ c i A BXVXVXjXm 1 1 3 *.*.*.r e w 9 5 4 2 @ J @ G b./ / / / / / / / / / ",
"/ / / / / / / / / / / ] C.z o b = 3 4 6 9 q e r *.*.2 1 h < ,XVXVXVXNX=XX H $ 5 *.*.r e w 9 5 4 : $ P X I _./ / / / / / / / / / ",
"/ / / / / / / / / / / _ C.v o x g @ 3 4 0 w q e 0 & + v O ^ bXVXVXVXVXlX, % N $ : w e q 9 6 4 & @ 7 2 $ +.b./ / / / / / / / / / ",
"/ / / / / / / / / / / ) m.G.a o h b u + + + + + i b h o Q eX=XeXVXBX,X=XeXm @ 8 t 1 % % % $ * 2 J 3 X N %.b./ / / / / / / / / / ",
"/ / / / / / / / / / / / f.h.f p < > d h h h h h d i < A yXvX+XB +Xy.B &XBX<Xm - - 3 8 8 8 7 7 2 & - 8 J I.d./ / / / / / / / / / ",
"/ / / / / / / / / / / / } D.z k r.S p = = = = = p A %XsXBXVXnX@Xs B >XCXVXBXqX$XA , - = = = - C Z 7.N P (.[ / / / / / / / / / / ",
"/ / / / / / / / / / / / / XXh.f u.uX6X7X6X6X6X6X0XgXBXVXVXVXVXBXQ =XVXVXVXVXVXMXsXqX3X3X9X9X9X9XsXU D %.b./ / / / / / / / / / / ",
"/ / / / / / / / / / / / / { D.v Y 1XBXBXBXBXBXBXVXVXVXnX<XBXVXNXT &XBXVXCX=XBXVXVXVXBXBXBXBXBXBX>XN >.'.[ / / / / / / / / / / / ",
"/ / / / / / / / / / / / / / f.D.v k 2XBXVXVXVXVXVXVXVXnXB y.,Xu.V V @X,XQ T BXVXVXVXVXVXVXVXBX&XD ..{.{ / / / / / / / / / / / / ",
"/ / / / / / / / / / / / / / ` N.B.p.Y =XnXVXVXVXVXVXVXVXeXy.Q y.pX<Xy.Q u.kXVXVXVXVXVXVXVXvX$XI @.).a.( / / / / / / / / / / / / ",
"/ / / / / / / / / / / / / / / ` d.oXP.c u.dXVXVXVXVXVXVXVXBXMXVXVXVXBXCXVXVXVXVXVXVXVXBX2X! I %.{.s.( / / / / / / / / / / / / / ",
"/ / / / / / / / / / / / / / / / / ) v.oXV.F.H.,XjXBXVXVXVXVXVXVXVXVXVXVXVXVXVXVXBXdX&X! @.`.V.s.) / / / / / / / / / / / / / / / ",
"/ / / / / / / / / / / / / / / / / / ( [ d.M.B.R.E.!.0XgXxXbXMXNXNXNXCXMXbXlXsX3X*XT.J.).V.s.] ( / / / / / / / / / / / / / / / / ",
"/ / / / / / / / / / / / / / / / / / / / / ) s.N.C.D.S.R.L.!.8X4X4X4X4XwX!.U.(.[.].V.d.{ ( / / / / / / / / / / / / / / / / / / / ",
"/ / / / / / / / / / / / / / / / / / / / / / / / / / _ { f.m.A.XXXXXXXXA.m.f.{ _ / / / / / / / / / / / / / / / / / / / / / / / / ",
"/ / / / / / / / / / / / / / / / / / / / / / / / / / / / / / / / / / / / / / / / / / / / / / / / / / / / / / / / / / / / / / / / ",
"/ / / / / / / / / / / / / / / / / / / / / / / / / / / / / / / / / / / / / / / / / / / / / / / / / / / / / / / / / / / / / / / / ",
"/ / / / / / / / / / / / / / / / / / / / / / / / / / / / / / / / / / / / / / / / / / / / / / / / / / / / / / / / / / / / / / / / ",
"/ / / / / / / / / / / / / / / / / / / / / / / / / / / / / / / / / / / / / / / / / / / / / / / / / / / / / / / / / / / / / / / / "
};
